(G-CODE GENERATED BY FLATCAM v8.99 - www.flatcam.org - Version Date: 2019/12/15)

(Name: PCB businescard-F_Cu.gbr_cutout_cnc)
(Type: G-code from Geometry)
(Units: MM)

(Created on Tuesday, 28 October 2025 at 16:35)

(TOOL DIAMETER: 2.4 mm)
(Feedrate: 120.0 mm/min)
(Feedrate_Z: 60.0 mm/min)
(Feedrate rapids 1500.0 mm/min)

(Z_Cut: -2.0 mm)
(DepthPerCut: 0.5 mm <=>4 passes)
(Z_Move: 2.0 mm)
(Z Toolchange: 15.0 mm)
(X,Y Toolchange: 0.0000, 0.0000 mm)
(Z Start: None mm)
(Z End: 15.0 mm)
(Steps per circle: 64)
(Preprocessor Geometry: default)

(X range:  -36.8001 ...   59.9801  mm)
(Y range:  -49.3201 ...   14.4401  mm)

(Spindle Speed: None RPM)
G21
G90
G94




G01 F120.00
G00 Z2.0000

M03
G00 X58.6801 Y-49.3201
G01 F60.00
G01 Z-0.5000
G01 F120.00
G01 X-35.5001 Y-49.3201
G01 X-35.6275 Y-49.3138
G01 X-35.7537 Y-49.2951
G01 X-35.8774 Y-49.2641
G01 X-35.9975 Y-49.2211
G01 X-36.1129 Y-49.1665
G01 X-36.2223 Y-49.1010
G01 X-36.3248 Y-49.0250
G01 X-36.4193 Y-48.9393
G01 X-36.5050 Y-48.8448
G01 X-36.5810 Y-48.7423
G01 X-36.6465 Y-48.6329
G01 X-36.7011 Y-48.5175
G01 X-36.7441 Y-48.3974
G01 X-36.7751 Y-48.2737
G01 X-36.7938 Y-48.1475
G01 X-36.8001 Y-48.0201
G01 X-36.8001 Y13.1401
G01 X-36.7938 Y13.2675
G01 X-36.7751 Y13.3937
G01 X-36.7441 Y13.5174
G01 X-36.7011 Y13.6375
G01 X-36.6465 Y13.7529
G01 X-36.5810 Y13.8623
G01 X-36.5050 Y13.9648
G01 X-36.4193 Y14.0593
G01 X-36.3248 Y14.1450
G01 X-36.2223 Y14.2210
G01 X-36.1129 Y14.2865
G01 X-35.9975 Y14.3411
G01 X-35.8774 Y14.3841
G01 X-35.7537 Y14.4151
G01 X-35.6275 Y14.4338
G01 X-35.5001 Y14.4401
G01 X58.6801 Y14.4401
G01 X58.8075 Y14.4338
G01 X58.9337 Y14.4151
G01 X59.0574 Y14.3841
G01 X59.1775 Y14.3411
G01 X59.2929 Y14.2865
G01 X59.4023 Y14.2210
G01 X59.5048 Y14.1450
G01 X59.5993 Y14.0593
G01 X59.6850 Y13.9648
G01 X59.7610 Y13.8623
G01 X59.8265 Y13.7529
G01 X59.8811 Y13.6375
G01 X59.9241 Y13.5174
G01 X59.9551 Y13.3937
G01 X59.9738 Y13.2675
G01 X59.9801 Y13.1401
G01 X59.9801 Y-48.0201
G01 X59.9738 Y-48.1475
G01 X59.9551 Y-48.2737
G01 X59.9241 Y-48.3974
G01 X59.8811 Y-48.5175
G01 X59.8265 Y-48.6329
G01 X59.7610 Y-48.7423
G01 X59.6850 Y-48.8448
G01 X59.5993 Y-48.9393
G01 X59.5048 Y-49.0250
G01 X59.4023 Y-49.1010
G01 X59.2929 Y-49.1665
G01 X59.1775 Y-49.2211
G01 X59.0574 Y-49.2641
G01 X58.9337 Y-49.2951
G01 X58.8075 Y-49.3138
G01 X58.6801 Y-49.3201
G00 X58.6801 Y-49.3201
G01 F60.00
G01 Z-1.0000
G01 F120.00
G01 X-35.5001 Y-49.3201
G01 X-35.6275 Y-49.3138
G01 X-35.7537 Y-49.2951
G01 X-35.8774 Y-49.2641
G01 X-35.9975 Y-49.2211
G01 X-36.1129 Y-49.1665
G01 X-36.2223 Y-49.1010
G01 X-36.3248 Y-49.0250
G01 X-36.4193 Y-48.9393
G01 X-36.5050 Y-48.8448
G01 X-36.5810 Y-48.7423
G01 X-36.6465 Y-48.6329
G01 X-36.7011 Y-48.5175
G01 X-36.7441 Y-48.3974
G01 X-36.7751 Y-48.2737
G01 X-36.7938 Y-48.1475
G01 X-36.8001 Y-48.0201
G01 X-36.8001 Y13.1401
G01 X-36.7938 Y13.2675
G01 X-36.7751 Y13.3937
G01 X-36.7441 Y13.5174
G01 X-36.7011 Y13.6375
G01 X-36.6465 Y13.7529
G01 X-36.5810 Y13.8623
G01 X-36.5050 Y13.9648
G01 X-36.4193 Y14.0593
G01 X-36.3248 Y14.1450
G01 X-36.2223 Y14.2210
G01 X-36.1129 Y14.2865
G01 X-35.9975 Y14.3411
G01 X-35.8774 Y14.3841
G01 X-35.7537 Y14.4151
G01 X-35.6275 Y14.4338
G01 X-35.5001 Y14.4401
G01 X58.6801 Y14.4401
G01 X58.8075 Y14.4338
G01 X58.9337 Y14.4151
G01 X59.0574 Y14.3841
G01 X59.1775 Y14.3411
G01 X59.2929 Y14.2865
G01 X59.4023 Y14.2210
G01 X59.5048 Y14.1450
G01 X59.5993 Y14.0593
G01 X59.6850 Y13.9648
G01 X59.7610 Y13.8623
G01 X59.8265 Y13.7529
G01 X59.8811 Y13.6375
G01 X59.9241 Y13.5174
G01 X59.9551 Y13.3937
G01 X59.9738 Y13.2675
G01 X59.9801 Y13.1401
G01 X59.9801 Y-48.0201
G01 X59.9738 Y-48.1475
G01 X59.9551 Y-48.2737
G01 X59.9241 Y-48.3974
G01 X59.8811 Y-48.5175
G01 X59.8265 Y-48.6329
G01 X59.7610 Y-48.7423
G01 X59.6850 Y-48.8448
G01 X59.5993 Y-48.9393
G01 X59.5048 Y-49.0250
G01 X59.4023 Y-49.1010
G01 X59.2929 Y-49.1665
G01 X59.1775 Y-49.2211
G01 X59.0574 Y-49.2641
G01 X58.9337 Y-49.2951
G01 X58.8075 Y-49.3138
G01 X58.6801 Y-49.3201
G00 X58.6801 Y-49.3201
G01 F60.00
G01 Z-1.5000
G01 F120.00
G01 X-35.5001 Y-49.3201
G01 X-35.6275 Y-49.3138
G01 X-35.7537 Y-49.2951
G01 X-35.8774 Y-49.2641
G01 X-35.9975 Y-49.2211
G01 X-36.1129 Y-49.1665
G01 X-36.2223 Y-49.1010
G01 X-36.3248 Y-49.0250
G01 X-36.4193 Y-48.9393
G01 X-36.5050 Y-48.8448
G01 X-36.5810 Y-48.7423
G01 X-36.6465 Y-48.6329
G01 X-36.7011 Y-48.5175
G01 X-36.7441 Y-48.3974
G01 X-36.7751 Y-48.2737
G01 X-36.7938 Y-48.1475
G01 X-36.8001 Y-48.0201
G01 X-36.8001 Y13.1401
G01 X-36.7938 Y13.2675
G01 X-36.7751 Y13.3937
G01 X-36.7441 Y13.5174
G01 X-36.7011 Y13.6375
G01 X-36.6465 Y13.7529
G01 X-36.5810 Y13.8623
G01 X-36.5050 Y13.9648
G01 X-36.4193 Y14.0593
G01 X-36.3248 Y14.1450
G01 X-36.2223 Y14.2210
G01 X-36.1129 Y14.2865
G01 X-35.9975 Y14.3411
G01 X-35.8774 Y14.3841
G01 X-35.7537 Y14.4151
G01 X-35.6275 Y14.4338
G01 X-35.5001 Y14.4401
G01 X58.6801 Y14.4401
G01 X58.8075 Y14.4338
G01 X58.9337 Y14.4151
G01 X59.0574 Y14.3841
G01 X59.1775 Y14.3411
G01 X59.2929 Y14.2865
G01 X59.4023 Y14.2210
G01 X59.5048 Y14.1450
G01 X59.5993 Y14.0593
G01 X59.6850 Y13.9648
G01 X59.7610 Y13.8623
G01 X59.8265 Y13.7529
G01 X59.8811 Y13.6375
G01 X59.9241 Y13.5174
G01 X59.9551 Y13.3937
G01 X59.9738 Y13.2675
G01 X59.9801 Y13.1401
G01 X59.9801 Y-48.0201
G01 X59.9738 Y-48.1475
G01 X59.9551 Y-48.2737
G01 X59.9241 Y-48.3974
G01 X59.8811 Y-48.5175
G01 X59.8265 Y-48.6329
G01 X59.7610 Y-48.7423
G01 X59.6850 Y-48.8448
G01 X59.5993 Y-48.9393
G01 X59.5048 Y-49.0250
G01 X59.4023 Y-49.1010
G01 X59.2929 Y-49.1665
G01 X59.1775 Y-49.2211
G01 X59.0574 Y-49.2641
G01 X58.9337 Y-49.2951
G01 X58.8075 Y-49.3138
G01 X58.6801 Y-49.3201
G00 X58.6801 Y-49.3201
G01 F60.00
G01 Z-2.0000
G01 F120.00
G01 X-35.5001 Y-49.3201
G01 X-35.6275 Y-49.3138
G01 X-35.7537 Y-49.2951
G01 X-35.8774 Y-49.2641
G01 X-35.9975 Y-49.2211
G01 X-36.1129 Y-49.1665
G01 X-36.2223 Y-49.1010
G01 X-36.3248 Y-49.0250
G01 X-36.4193 Y-48.9393
G01 X-36.5050 Y-48.8448
G01 X-36.5810 Y-48.7423
G01 X-36.6465 Y-48.6329
G01 X-36.7011 Y-48.5175
G01 X-36.7441 Y-48.3974
G01 X-36.7751 Y-48.2737
G01 X-36.7938 Y-48.1475
G01 X-36.8001 Y-48.0201
G01 X-36.8001 Y13.1401
G01 X-36.7938 Y13.2675
G01 X-36.7751 Y13.3937
G01 X-36.7441 Y13.5174
G01 X-36.7011 Y13.6375
G01 X-36.6465 Y13.7529
G01 X-36.5810 Y13.8623
G01 X-36.5050 Y13.9648
G01 X-36.4193 Y14.0593
G01 X-36.3248 Y14.1450
G01 X-36.2223 Y14.2210
G01 X-36.1129 Y14.2865
G01 X-35.9975 Y14.3411
G01 X-35.8774 Y14.3841
G01 X-35.7537 Y14.4151
G01 X-35.6275 Y14.4338
G01 X-35.5001 Y14.4401
G01 X58.6801 Y14.4401
G01 X58.8075 Y14.4338
G01 X58.9337 Y14.4151
G01 X59.0574 Y14.3841
G01 X59.1775 Y14.3411
G01 X59.2929 Y14.2865
G01 X59.4023 Y14.2210
G01 X59.5048 Y14.1450
G01 X59.5993 Y14.0593
G01 X59.6850 Y13.9648
G01 X59.7610 Y13.8623
G01 X59.8265 Y13.7529
G01 X59.8811 Y13.6375
G01 X59.9241 Y13.5174
G01 X59.9551 Y13.3937
G01 X59.9738 Y13.2675
G01 X59.9801 Y13.1401
G01 X59.9801 Y-48.0201
G01 X59.9738 Y-48.1475
G01 X59.9551 Y-48.2737
G01 X59.9241 Y-48.3974
G01 X59.8811 Y-48.5175
G01 X59.8265 Y-48.6329
G01 X59.7610 Y-48.7423
G01 X59.6850 Y-48.8448
G01 X59.5993 Y-48.9393
G01 X59.5048 Y-49.0250
G01 X59.4023 Y-49.1010
G01 X59.2929 Y-49.1665
G01 X59.1775 Y-49.2211
G01 X59.0574 Y-49.2641
G01 X58.9337 Y-49.2951
G01 X58.8075 Y-49.3138
G01 X58.6801 Y-49.3201
G00 Z2.0000
M05
G00 Z2.0000
G00 Z15.00
G00 X0.0 Y0.0

