(G-CODE GENERATED BY FLATCAM v8.99 - www.flatcam.org - Version Date: 2019/12/15)

(Name: PCB businescard-F_Cu.gbr_iso5_cnc)
(Type: G-code from Geometry)
(Units: MM)

(Created on Thursday, 23 October 2025 at 16:29)

(TOOL DIAMETER: 0.1536 mm)
(Feedrate: 120.0 mm/min)
(Feedrate_Z: 60.0 mm/min)
(Feedrate rapids 1500.0 mm/min)

(Z_Cut: -2.4 mm)
(Z_Move: 2.0 mm)
(Z Toolchange: 15.0 mm)
(X,Y Toolchange: 0.0000, 0.0000 mm)
(Z Start: None mm)
(Z End: 15.0 mm)
(Steps per circle: 64)
(Preprocessor Geometry: default)

(X range:  101.0852 ...  196.0948  mm)
(Y range: -122.4348 ...  -60.4452  mm)

(Spindle Speed: None RPM)
G21
G90
G94




G01 F120.00
G00 Z2.0000

M03
G00 X101.0852 Y-60.9600
G01 F60.00
G01 Z-2.4000
G01 F120.00
G01 X101.0852 Y-121.9200
G01 X101.0862 Y-121.9502
G01 X101.0877 Y-121.9705
G01 X101.0916 Y-122.0004
G01 X101.0951 Y-122.0204
G01 X101.0996 Y-122.0403
G01 X101.1074 Y-122.0694
G01 X101.1171 Y-122.0980
G01 X101.1244 Y-122.1170
G01 X101.1327 Y-122.1356
G01 X101.1460 Y-122.1627
G01 X101.1611 Y-122.1888
G01 X101.1720 Y-122.2060
G01 X101.1896 Y-122.2305
G01 X101.2021 Y-122.2466
G01 X101.2154 Y-122.2620
G01 X101.2360 Y-122.2840
G01 X101.2580 Y-122.3046
G01 X101.2734 Y-122.3179
G01 X101.2895 Y-122.3304
G01 X101.3140 Y-122.3480
G01 X101.3396 Y-122.3640
G01 X101.3573 Y-122.3740
G01 X101.3755 Y-122.3831
G01 X101.4030 Y-122.3956
G01 X101.4220 Y-122.4029
G01 X101.4506 Y-122.4126
G01 X101.4797 Y-122.4204
G01 X101.4996 Y-122.4249
G01 X101.5196 Y-122.4284
G01 X101.5495 Y-122.4323
G01 X101.5698 Y-122.4338
G01 X101.6000 Y-122.4348
G01 X195.5800 Y-122.4348
G01 X195.6102 Y-122.4338
G01 X195.6305 Y-122.4323
G01 X195.6507 Y-122.4298
G01 X195.6804 Y-122.4249
G01 X195.7098 Y-122.4180
G01 X195.7294 Y-122.4126
G01 X195.7488 Y-122.4062
G01 X195.7770 Y-122.3956
G01 X195.8045 Y-122.3831
G01 X195.8227 Y-122.3740
G01 X195.8488 Y-122.3589
G01 X195.8660 Y-122.3480
G01 X195.8826 Y-122.3363
G01 X195.9066 Y-122.3179
G01 X195.9293 Y-122.2980
G01 X195.9440 Y-122.2840
G01 X195.9580 Y-122.2693
G01 X195.9779 Y-122.2466
G01 X195.9904 Y-122.2305
G01 X196.0080 Y-122.2060
G01 X196.0189 Y-122.1888
G01 X196.0340 Y-122.1627
G01 X196.0473 Y-122.1356
G01 X196.0556 Y-122.1170
G01 X196.0629 Y-122.0980
G01 X196.0726 Y-122.0694
G01 X196.0780 Y-122.0498
G01 X196.0849 Y-122.0204
G01 X196.0898 Y-121.9907
G01 X196.0923 Y-121.9705
G01 X196.0938 Y-121.9502
G01 X196.0948 Y-121.9200
G01 X196.0948 Y-60.9600
G01 X196.0938 Y-60.9298
G01 X196.0923 Y-60.9095
G01 X196.0898 Y-60.8893
G01 X196.0849 Y-60.8596
G01 X196.0780 Y-60.8302
G01 X196.0726 Y-60.8106
G01 X196.0662 Y-60.7912
G01 X196.0556 Y-60.7630
G01 X196.0431 Y-60.7355
G01 X196.0340 Y-60.7173
G01 X196.0189 Y-60.6912
G01 X196.0080 Y-60.6740
G01 X195.9963 Y-60.6574
G01 X195.9779 Y-60.6334
G01 X195.9580 Y-60.6107
G01 X195.9440 Y-60.5960
G01 X195.9293 Y-60.5820
G01 X195.9066 Y-60.5621
G01 X195.8826 Y-60.5437
G01 X195.8660 Y-60.5320
G01 X195.8404 Y-60.5160
G01 X195.8227 Y-60.5060
G01 X195.8045 Y-60.4969
G01 X195.7770 Y-60.4844
G01 X195.7580 Y-60.4771
G01 X195.7294 Y-60.4674
G01 X195.7003 Y-60.4596
G01 X195.6804 Y-60.4551
G01 X195.6604 Y-60.4516
G01 X195.6305 Y-60.4477
G01 X195.6102 Y-60.4462
G01 X195.5800 Y-60.4452
G01 X101.6000 Y-60.4452
G01 X101.5698 Y-60.4462
G01 X101.5495 Y-60.4477
G01 X101.5196 Y-60.4516
G01 X101.4996 Y-60.4551
G01 X101.4702 Y-60.4620
G01 X101.4506 Y-60.4674
G01 X101.4312 Y-60.4738
G01 X101.4030 Y-60.4844
G01 X101.3844 Y-60.4927
G01 X101.3573 Y-60.5060
G01 X101.3396 Y-60.5160
G01 X101.3140 Y-60.5320
G01 X101.2974 Y-60.5437
G01 X101.2734 Y-60.5621
G01 X101.2507 Y-60.5820
G01 X101.2360 Y-60.5960
G01 X101.2220 Y-60.6107
G01 X101.2021 Y-60.6334
G01 X101.1896 Y-60.6495
G01 X101.1720 Y-60.6740
G01 X101.1560 Y-60.6996
G01 X101.1460 Y-60.7173
G01 X101.1369 Y-60.7355
G01 X101.1244 Y-60.7630
G01 X101.1171 Y-60.7820
G01 X101.1074 Y-60.8106
G01 X101.1020 Y-60.8302
G01 X101.0951 Y-60.8596
G01 X101.0902 Y-60.8893
G01 X101.0877 Y-60.9095
G01 X101.0857 Y-60.9397
G01 X101.0852 Y-60.9600
G00 Z2.0000
G00 X132.5948 Y-64.0148
G01 F60.00
G01 Z-2.4000
G01 F120.00
G01 X132.5948 Y-70.6052
G01 X156.9652 Y-70.6052
G01 X156.9652 Y-64.0148
G01 X132.5948 Y-64.0148
G00 Z2.0000
G00 X134.5259 Y-65.5821
G01 F60.00
G01 Z-2.4000
G01 F120.00
G01 X134.5273 Y-65.5421
G01 X134.5286 Y-65.5268
G01 X134.5315 Y-65.5038
G01 X134.5193 Y-65.5041
G01 X134.4842 Y-65.5029
G01 X134.4639 Y-65.5014
G01 X134.4437 Y-65.4989
G01 X134.4091 Y-65.4932
G01 X134.3750 Y-65.4852
G01 X134.3553 Y-65.4798
G01 X134.3221 Y-65.4684
G01 X134.3031 Y-65.4611
G01 X134.2712 Y-65.4465
G01 X134.2530 Y-65.4374
G01 X134.2227 Y-65.4198
G01 X134.2055 Y-65.4089
G01 X134.1843 Y-65.3938
G01 X134.1555 Y-65.5088
G01 X134.1555 Y-65.5840
G01 X134.1843 Y-65.6991
G01 X134.2055 Y-65.6840
G01 X134.2353 Y-65.6655
G01 X134.2530 Y-65.6555
G01 X134.2845 Y-65.6400
G01 X134.3031 Y-65.6318
G01 X134.3360 Y-65.6195
G01 X134.3553 Y-65.6131
G01 X134.3749 Y-65.6077
G01 X134.4091 Y-65.5996
G01 X134.4292 Y-65.5961
G01 X134.4639 Y-65.5915
G01 X134.4989 Y-65.5893
G01 X134.5259 Y-65.5889
G01 X134.5259 Y-65.5821
G00 Z2.0000
G00 X135.0841 Y-67.2411
G01 F60.00
G01 Z-2.4000
G01 F120.00
G01 X135.1238 Y-67.2213
G01 X135.1423 Y-67.2126
G01 X135.1693 Y-67.2010
G01 X135.1938 Y-67.1921
G01 X135.2218 Y-67.1832
G01 X135.2470 Y-67.1768
G01 X135.2758 Y-67.1707
G01 X135.3015 Y-67.1668
G01 X135.3211 Y-67.1644
G01 X135.3364 Y-67.1631
G01 X135.3764 Y-67.1616
G01 X135.6621 Y-67.1616
G01 X135.6825 Y-67.1621
G01 X135.7022 Y-67.1631
G01 X135.7175 Y-67.1644
G01 X135.7377 Y-67.1668
G01 X135.7668 Y-67.1714
G01 X135.7916 Y-67.1768
G01 X135.8113 Y-67.1817
G01 X135.8261 Y-67.1860
G01 X135.8448 Y-67.1921
G01 X135.8640 Y-67.1989
G01 X135.8783 Y-67.2046
G01 X135.9056 Y-67.2168
G01 X136.0259 Y-67.2769
G01 X136.0260 Y-67.2163
G01 X136.0271 Y-67.1914
G01 X136.0286 Y-67.1711
G01 X136.0311 Y-67.1509
G01 X136.0368 Y-67.1162
G01 X136.0448 Y-67.0821
G01 X136.0502 Y-67.0625
G01 X136.0616 Y-67.0293
G01 X136.0689 Y-67.0103
G01 X136.0772 Y-66.9917
G01 X136.0926 Y-66.9602
G01 X136.1102 Y-66.9298
G01 X136.1211 Y-66.9126
G01 X136.1416 Y-66.8842
G01 X136.1541 Y-66.8681
G01 X136.1674 Y-66.8527
G01 X136.1913 Y-66.8271
G01 X136.2170 Y-66.8031
G01 X136.2324 Y-66.7898
G01 X136.2603 Y-66.7685
G01 X136.2769 Y-66.7568
G01 X136.2941 Y-66.7459
G01 X136.3068 Y-66.7384
G01 X136.3295 Y-66.7258
G01 X136.3073 Y-66.7134
G01 X136.2851 Y-66.6999
G01 X136.2608 Y-66.6833
G01 X136.2444 Y-66.6712
G01 X136.2324 Y-66.6616
G01 X136.2024 Y-66.6351
G01 X136.1621 Y-66.5952
G01 X136.1219 Y-66.6351
G01 X136.0919 Y-66.6616
G01 X136.0799 Y-66.6712
G01 X136.0474 Y-66.6946
G01 X136.0344 Y-66.7030
G01 X136.0175 Y-66.7131
G01 X135.9998 Y-66.7231
G01 X135.9862 Y-66.7302
G01 X135.8341 Y-66.8060
G01 X135.8069 Y-66.8182
G01 X135.7926 Y-66.8239
G01 X135.7547 Y-66.8369
G01 X135.7399 Y-66.8412
G01 X135.7208 Y-66.8459
G01 X135.6913 Y-66.8522
G01 X135.6656 Y-66.8561
G01 X135.6461 Y-66.8585
G01 X135.6308 Y-66.8598
G01 X135.5907 Y-66.8612
G01 X135.3764 Y-66.8612
G01 X135.3364 Y-66.8598
G01 X135.3211 Y-66.8585
G01 X135.2814 Y-66.8532
G01 X135.2662 Y-66.8504
G01 X135.2272 Y-66.8412
G01 X135.2125 Y-66.8369
G01 X135.1746 Y-66.8239
G01 X135.1603 Y-66.8182
G01 X135.1330 Y-66.8060
G01 X134.9760 Y-66.7276
G01 X134.9502 Y-66.7134
G01 X134.9327 Y-66.7030
G01 X134.9198 Y-66.6946
G01 X134.8873 Y-66.6712
G01 X134.8753 Y-66.6616
G01 X134.8603 Y-66.6487
G01 X134.8407 Y-66.6307
G01 X134.8179 Y-66.6517
G01 X134.8062 Y-66.6616
G01 X134.7906 Y-66.6737
G01 X134.7663 Y-66.6914
G01 X134.7414 Y-66.7073
G01 X134.7673 Y-66.7192
G01 X134.7855 Y-66.7283
G01 X134.8159 Y-66.7459
G01 X134.8331 Y-66.7568
G01 X134.8497 Y-66.7685
G01 X134.8776 Y-66.7898
G01 X134.9039 Y-66.8130
G01 X134.9187 Y-66.8271
G01 X134.9327 Y-66.8418
G01 X134.9559 Y-66.8681
G01 X134.9684 Y-66.8842
G01 X134.9889 Y-66.9126
G01 X134.9998 Y-66.9298
G01 X135.0174 Y-66.9602
G01 X135.0328 Y-66.9917
G01 X135.0411 Y-67.0103
G01 X135.0484 Y-67.0293
G01 X135.0598 Y-67.0625
G01 X135.0652 Y-67.0821
G01 X135.0732 Y-67.1162
G01 X135.0789 Y-67.1509
G01 X135.0814 Y-67.1711
G01 X135.0829 Y-67.1914
G01 X135.0840 Y-67.2163
G01 X135.0841 Y-67.2411
G00 Z2.0000
G00 X136.3058 Y-69.0931
G01 F60.00
G01 Z-2.4000
G01 F120.00
G01 X136.3159 Y-69.1012
G01 X136.3357 Y-69.1159
G01 X136.3613 Y-69.1330
G01 X136.3824 Y-69.1457
G01 X136.4096 Y-69.1602
G01 X136.5524 Y-69.2316
G01 X136.5708 Y-69.2403
G01 X136.5889 Y-69.2482
G01 X136.6031 Y-69.2539
G01 X136.6410 Y-69.2669
G01 X136.6558 Y-69.2712
G01 X136.6948 Y-69.2804
G01 X136.7099 Y-69.2832
G01 X136.7294 Y-69.2860
G01 X136.7496 Y-69.2885
G01 X136.7650 Y-69.2898
G01 X136.7948 Y-69.2911
G01 X136.9580 Y-69.2911
G01 X136.9829 Y-69.2900
G01 X137.0032 Y-69.2885
G01 X137.0380 Y-69.2839
G01 X137.0580 Y-69.2804
G01 X137.0779 Y-69.2759
G01 X137.1118 Y-69.2669
G01 X137.1450 Y-69.2556
G01 X137.1640 Y-69.2482
G01 X137.1826 Y-69.2400
G01 X137.2141 Y-69.2245
G01 X137.2444 Y-69.2069
G01 X137.2616 Y-69.1960
G01 X137.2783 Y-69.1843
G01 X137.3062 Y-69.1630
G01 X137.3325 Y-69.1398
G01 X137.3472 Y-69.1258
G01 X137.3613 Y-69.1111
G01 X137.3844 Y-69.0847
G01 X137.3970 Y-69.0687
G01 X137.4175 Y-69.0402
G01 X137.4359 Y-69.0104
G01 X137.4460 Y-68.9927
G01 X137.4551 Y-68.9745
G01 X137.4697 Y-68.9425
G01 X137.4819 Y-68.9097
G01 X137.4883 Y-68.8904
G01 X137.4938 Y-68.8708
G01 X137.5018 Y-68.8366
G01 X137.5053 Y-68.8166
G01 X137.5099 Y-68.7818
G01 X137.5114 Y-68.7615
G01 X137.5127 Y-68.7264
G01 X137.5122 Y-68.7061
G01 X137.5099 Y-68.6711
G01 X137.5053 Y-68.6363
G01 X137.5018 Y-68.6162
G01 X137.4938 Y-68.5821
G01 X137.4883 Y-68.5625
G01 X137.4819 Y-68.5431
G01 X137.4697 Y-68.5103
G01 X137.4614 Y-68.4917
G01 X137.4460 Y-68.4602
G01 X137.4284 Y-68.4298
G01 X137.4175 Y-68.4126
G01 X137.3970 Y-68.3842
G01 X137.3844 Y-68.3681
G01 X137.3613 Y-68.3418
G01 X137.3472 Y-68.3271
G01 X137.3325 Y-68.3130
G01 X137.3062 Y-68.2898
G01 X137.2901 Y-68.2773
G01 X137.2616 Y-68.2568
G01 X137.2318 Y-68.2384
G01 X137.2103 Y-68.2264
G01 X137.2318 Y-68.2145
G01 X137.2444 Y-68.2069
G01 X137.2616 Y-68.1960
G01 X137.2783 Y-68.1843
G01 X137.3062 Y-68.1630
G01 X137.3216 Y-68.1497
G01 X137.3472 Y-68.1258
G01 X137.3613 Y-68.1111
G01 X137.3844 Y-68.0847
G01 X137.4057 Y-68.0569
G01 X137.4175 Y-68.0402
G01 X137.4284 Y-68.0230
G01 X137.4460 Y-67.9927
G01 X137.4551 Y-67.9745
G01 X137.4697 Y-67.9425
G01 X137.4819 Y-67.9097
G01 X137.4883 Y-67.8904
G01 X137.4938 Y-67.8708
G01 X137.5018 Y-67.8366
G01 X137.5074 Y-67.8020
G01 X137.5099 Y-67.7818
G01 X137.5114 Y-67.7615
G01 X137.5127 Y-67.7264
G01 X137.5122 Y-67.7061
G01 X137.5099 Y-67.6711
G01 X137.5053 Y-67.6363
G01 X137.5018 Y-67.6162
G01 X137.4938 Y-67.5821
G01 X137.4883 Y-67.5625
G01 X137.4819 Y-67.5431
G01 X137.4697 Y-67.5103
G01 X137.4551 Y-67.4784
G01 X137.4460 Y-67.4602
G01 X137.4359 Y-67.4425
G01 X137.4175 Y-67.4126
G01 X137.3970 Y-67.3842
G01 X137.3844 Y-67.3681
G01 X137.3613 Y-67.3418
G01 X137.3472 Y-67.3271
G01 X137.3325 Y-67.3130
G01 X137.3062 Y-67.2898
G01 X137.2783 Y-67.2685
G01 X137.2616 Y-67.2568
G01 X137.2444 Y-67.2459
G01 X137.2141 Y-67.2283
G01 X137.1826 Y-67.2129
G01 X137.1640 Y-67.2046
G01 X137.1548 Y-67.2011
G01 X137.1528 Y-67.1711
G01 X137.1481 Y-67.1363
G01 X137.1447 Y-67.1162
G01 X137.1366 Y-67.0821
G01 X137.1312 Y-67.0625
G01 X137.1248 Y-67.0431
G01 X137.1125 Y-67.0103
G01 X137.1043 Y-66.9917
G01 X137.0888 Y-66.9602
G01 X137.0712 Y-66.9298
G01 X137.0603 Y-66.9126
G01 X137.0486 Y-66.8960
G01 X137.0273 Y-66.8681
G01 X137.0213 Y-66.8612
G01 X137.0593 Y-66.8598
G01 X137.0747 Y-66.8585
G01 X137.0907 Y-66.8565
G01 X137.1068 Y-66.8585
G01 X137.1271 Y-66.8600
G01 X137.1621 Y-66.8612
G01 X137.1726 Y-66.8610
G01 X137.1768 Y-66.8915
G01 X137.1839 Y-66.9258
G01 X137.1888 Y-66.9456
G01 X137.1947 Y-66.9651
G01 X137.2061 Y-66.9983
G01 X137.2197 Y-67.0306
G01 X137.2284 Y-67.0490
G01 X137.2379 Y-67.0670
G01 X137.2556 Y-67.0973
G01 X137.2753 Y-67.1263
G01 X137.2874 Y-67.1427
G01 X137.3003 Y-67.1585
G01 X137.3235 Y-67.1848
G01 X137.3378 Y-67.1992
G01 X137.3635 Y-67.2231
G01 X137.3908 Y-67.2452
G01 X137.4071 Y-67.2573
G01 X137.4240 Y-67.2687
G01 X137.4539 Y-67.2871
G01 X137.4849 Y-67.3034
G01 X137.5033 Y-67.3122
G01 X137.5221 Y-67.3200
G01 X137.5550 Y-67.3322
G01 X137.5744 Y-67.3382
G01 X137.6083 Y-67.3472
G01 X137.6428 Y-67.3537
G01 X137.6629 Y-67.3568
G01 X137.6979 Y-67.3600
G01 X137.7182 Y-67.3610
G01 X137.7385 Y-67.3611
G01 X137.7736 Y-67.3598
G01 X137.8085 Y-67.3561
G01 X137.8286 Y-67.3532
G01 X137.8486 Y-67.3492
G01 X137.8828 Y-67.3412
G01 X137.9162 Y-67.3307
G01 X137.9354 Y-67.3239
G01 X137.9677 Y-67.3103
G01 X137.9975 Y-67.2959
G01 X137.9918 Y-67.3103
G01 X137.9788 Y-67.3482
G01 X137.9745 Y-67.3630
G01 X137.9698 Y-67.3821
G01 X137.9653 Y-67.4020
G01 X137.9625 Y-67.4171
G01 X137.9572 Y-67.4568
G01 X137.9559 Y-67.4721
G01 X137.9545 Y-67.5121
G01 X137.9546 Y-67.6652
G01 X137.9559 Y-67.6950
G01 X137.9572 Y-67.7104
G01 X137.9625 Y-67.7501
G01 X137.9653 Y-67.7652
G01 X137.9745 Y-67.8042
G01 X137.9788 Y-67.8189
G01 X137.9918 Y-67.8568
G01 X137.9975 Y-67.8711
G01 X138.0141 Y-67.9076
G01 X138.0900 Y-68.0591
G01 X138.1023 Y-68.0813
G01 X138.1127 Y-68.0987
G01 X138.1211 Y-68.1116
G01 X138.1328 Y-68.1283
G01 X138.1445 Y-68.1441
G01 X138.1541 Y-68.1562
G01 X138.1806 Y-68.1862
G01 X138.1903 Y-68.1961
G01 X138.1730 Y-68.2088
G01 X138.1572 Y-68.2217
G01 X138.1309 Y-68.2449
G01 X138.1165 Y-68.2593
G01 X138.0926 Y-68.2849
G01 X138.0706 Y-68.3122
G01 X138.0584 Y-68.3286
G01 X138.0391 Y-68.3579
G01 X138.0286 Y-68.3753
G01 X138.0123 Y-68.4064
G01 X138.0036 Y-68.4247
G01 X137.9957 Y-68.4435
G01 X137.9835 Y-68.4764
G01 X137.9775 Y-68.4959
G01 X137.9686 Y-68.5298
G01 X137.9620 Y-68.5642
G01 X137.9589 Y-68.5844
G01 X137.9569 Y-68.6046
G01 X137.9547 Y-68.6396
G01 X137.9550 Y-68.6747
G01 X137.9559 Y-68.6951
G01 X137.9596 Y-68.7299
G01 X137.9625 Y-68.7501
G01 X137.9697 Y-68.7844
G01 X137.9745 Y-68.8042
G01 X137.9804 Y-68.8237
G01 X137.9918 Y-68.8569
G01 X138.0055 Y-68.8892
G01 X138.0141 Y-68.9076
G01 X138.0237 Y-68.9256
G01 X138.0413 Y-68.9559
G01 X138.0610 Y-68.9849
G01 X138.0731 Y-69.0013
G01 X138.0956 Y-69.0282
G01 X138.1092 Y-69.0434
G01 X138.1235 Y-69.0578
G01 X138.1492 Y-69.0817
G01 X138.1765 Y-69.1037
G01 X138.1928 Y-69.1159
G01 X138.2222 Y-69.1352
G01 X138.2396 Y-69.1457
G01 X138.2575 Y-69.1553
G01 X138.2890 Y-69.1707
G01 X138.3215 Y-69.1839
G01 X138.3407 Y-69.1908
G01 X138.5603 Y-69.2640
G01 X138.5886 Y-69.2722
G01 X138.6083 Y-69.2772
G01 X138.6234 Y-69.2804
G01 X138.6629 Y-69.2868
G01 X138.6782 Y-69.2885
G01 X138.7182 Y-69.2910
G01 X139.0907 Y-69.2912
G01 X139.1307 Y-69.2898
G01 X139.1461 Y-69.2885
G01 X139.1858 Y-69.2832
G01 X139.2009 Y-69.2804
G01 X139.2208 Y-69.2759
G01 X139.2493 Y-69.2685
G01 X139.2740 Y-69.2605
G01 X139.2978 Y-69.2519
G01 X139.3249 Y-69.2403
G01 X139.3433 Y-69.2316
G01 X139.4862 Y-69.1602
G01 X139.4998 Y-69.1531
G01 X139.5170 Y-69.1434
G01 X139.5345 Y-69.1330
G01 X139.5474 Y-69.1246
G01 X139.5799 Y-69.1012
G01 X139.5919 Y-69.0916
G01 X139.6219 Y-69.0651
G01 X139.6632 Y-69.0241
G01 X139.6745 Y-69.0367
G01 X139.6885 Y-69.0514
G01 X139.7024 Y-69.0651
G01 X139.7207 Y-69.0817
G01 X139.7444 Y-69.1012
G01 X139.7569 Y-69.1106
G01 X139.7736 Y-69.1223
G01 X139.7898 Y-69.1330
G01 X139.8110 Y-69.1457
G01 X139.8381 Y-69.1602
G01 X139.9902 Y-69.2360
G01 X140.0174 Y-69.2482
G01 X140.0317 Y-69.2539
G01 X140.0503 Y-69.2605
G01 X140.0750 Y-69.2685
G01 X140.1042 Y-69.2761
G01 X140.1329 Y-69.2822
G01 X140.1587 Y-69.2861
G01 X140.1782 Y-69.2885
G01 X140.1935 Y-69.2898
G01 X140.2234 Y-69.2911
G01 X140.3764 Y-69.2912
G01 X140.4115 Y-69.2900
G01 X140.4318 Y-69.2885
G01 X140.4666 Y-69.2839
G01 X140.4866 Y-69.2804
G01 X140.5065 Y-69.2759
G01 X140.5404 Y-69.2669
G01 X140.5597 Y-69.2605
G01 X140.5926 Y-69.2482
G01 X140.6245 Y-69.2337
G01 X140.6427 Y-69.2245
G01 X140.6730 Y-69.2069
G01 X140.6902 Y-69.1960
G01 X140.7069 Y-69.1843
G01 X140.7215 Y-69.1733
G01 X140.8473 Y-69.2360
G01 X140.8746 Y-69.2482
G01 X140.8889 Y-69.2539
G01 X140.9268 Y-69.2669
G01 X140.9415 Y-69.2712
G01 X140.9805 Y-69.2804
G01 X140.9956 Y-69.2832
G01 X141.0152 Y-69.2860
G01 X141.0353 Y-69.2885
G01 X141.0507 Y-69.2898
G01 X141.0805 Y-69.2911
G01 X141.3152 Y-69.2911
G01 X141.3450 Y-69.2898
G01 X141.3604 Y-69.2885
G01 X141.3806 Y-69.2860
G01 X141.4001 Y-69.2832
G01 X141.4123 Y-69.2809
G01 X141.4437 Y-69.2860
G01 X141.4639 Y-69.2885
G01 X141.4989 Y-69.2907
G01 X141.5193 Y-69.2912
G01 X141.5396 Y-69.2907
G01 X141.5747 Y-69.2885
G01 X141.6094 Y-69.2839
G01 X141.6295 Y-69.2804
G01 X141.6493 Y-69.2759
G01 X141.6832 Y-69.2669
G01 X141.7026 Y-69.2605
G01 X141.7354 Y-69.2482
G01 X141.7673 Y-69.2337
G01 X141.7855 Y-69.2245
G01 X141.8032 Y-69.2145
G01 X141.8331 Y-69.1960
G01 X141.8497 Y-69.1843
G01 X141.8776 Y-69.1630
G01 X141.8930 Y-69.1497
G01 X141.9187 Y-69.1258
G01 X141.9327 Y-69.1111
G01 X141.9486 Y-69.0931
G01 X141.9587 Y-69.1012
G01 X141.9912 Y-69.1246
G01 X142.0041 Y-69.1330
G01 X142.0388 Y-69.1531
G01 X142.1953 Y-69.2316
G01 X142.2317 Y-69.2482
G01 X142.2460 Y-69.2539
G01 X142.2839 Y-69.2669
G01 X142.2987 Y-69.2712
G01 X142.3377 Y-69.2804
G01 X142.3528 Y-69.2832
G01 X142.3925 Y-69.2885
G01 X142.4078 Y-69.2898
G01 X142.4275 Y-69.2907
G01 X142.4479 Y-69.2912
G01 X142.7336 Y-69.2912
G01 X142.7736 Y-69.2898
G01 X142.7889 Y-69.2885
G01 X142.8050 Y-69.2865
G01 X142.8211 Y-69.2885
G01 X142.8414 Y-69.2900
G01 X142.8764 Y-69.2912
G01 X142.9115 Y-69.2900
G01 X142.9318 Y-69.2885
G01 X142.9666 Y-69.2839
G01 X142.9866 Y-69.2804
G01 X143.0065 Y-69.2759
G01 X143.0404 Y-69.2669
G01 X143.0736 Y-69.2556
G01 X143.0926 Y-69.2482
G01 X143.1112 Y-69.2400
G01 X143.1427 Y-69.2245
G01 X143.1604 Y-69.2145
G01 X143.1902 Y-69.1960
G01 X143.2187 Y-69.1755
G01 X143.2347 Y-69.1630
G01 X143.2501 Y-69.1497
G01 X143.2611 Y-69.1398
G01 X143.2770 Y-69.1246
G01 X143.2898 Y-69.1330
G01 X143.3110 Y-69.1457
G01 X143.3381 Y-69.1602
G01 X143.4810 Y-69.2316
G01 X143.4994 Y-69.2403
G01 X143.5265 Y-69.2519
G01 X143.5503 Y-69.2605
G01 X143.5696 Y-69.2669
G01 X143.5844 Y-69.2712
G01 X143.6042 Y-69.2761
G01 X143.6234 Y-69.2804
G01 X143.6385 Y-69.2832
G01 X143.6782 Y-69.2885
G01 X143.6935 Y-69.2898
G01 X143.7336 Y-69.2912
G01 X144.0295 Y-69.2911
G01 X144.0593 Y-69.2898
G01 X144.0747 Y-69.2885
G01 X144.1144 Y-69.2832
G01 X144.1295 Y-69.2804
G01 X144.1685 Y-69.2712
G01 X144.1832 Y-69.2669
G01 X144.2211 Y-69.2539
G01 X144.2354 Y-69.2482
G01 X144.2534 Y-69.2403
G01 X144.2719 Y-69.2316
G01 X144.4238 Y-69.1555
G01 X144.4455 Y-69.1434
G01 X144.4630 Y-69.1330
G01 X144.4758 Y-69.1245
G01 X144.4918 Y-69.1398
G01 X144.5027 Y-69.1497
G01 X144.5181 Y-69.1630
G01 X144.5342 Y-69.1755
G01 X144.5626 Y-69.1960
G01 X144.5925 Y-69.2145
G01 X144.6102 Y-69.2245
G01 X144.6284 Y-69.2337
G01 X144.6603 Y-69.2482
G01 X144.6931 Y-69.2605
G01 X144.7125 Y-69.2669
G01 X144.7464 Y-69.2759
G01 X144.7662 Y-69.2804
G01 X144.7863 Y-69.2839
G01 X144.8211 Y-69.2885
G01 X144.8414 Y-69.2900
G01 X144.8764 Y-69.2912
G01 X144.8968 Y-69.2907
G01 X144.9318 Y-69.2885
G01 X144.9520 Y-69.2860
G01 X144.9866 Y-69.2804
G01 X145.0065 Y-69.2759
G01 X145.0404 Y-69.2669
G01 X145.0597 Y-69.2605
G01 X145.0926 Y-69.2482
G01 X145.1112 Y-69.2400
G01 X145.1427 Y-69.2245
G01 X145.1604 Y-69.2145
G01 X145.1902 Y-69.1960
G01 X145.1979 Y-69.1907
G01 X145.2055 Y-69.1960
G01 X145.2353 Y-69.2145
G01 X145.2530 Y-69.2245
G01 X145.2712 Y-69.2337
G01 X145.3031 Y-69.2482
G01 X145.3221 Y-69.2556
G01 X145.3553 Y-69.2669
G01 X145.3750 Y-69.2723
G01 X145.4091 Y-69.2804
G01 X145.4292 Y-69.2839
G01 X145.4639 Y-69.2885
G01 X145.4842 Y-69.2900
G01 X145.5193 Y-69.2912
G01 X145.5543 Y-69.2900
G01 X145.5747 Y-69.2885
G01 X145.6094 Y-69.2839
G01 X145.6295 Y-69.2804
G01 X145.6636 Y-69.2723
G01 X145.6832 Y-69.2669
G01 X145.7164 Y-69.2556
G01 X145.7354 Y-69.2482
G01 X145.7673 Y-69.2337
G01 X145.7855 Y-69.2245
G01 X145.8159 Y-69.2069
G01 X145.8331 Y-69.1960
G01 X145.8615 Y-69.1755
G01 X145.8776 Y-69.1630
G01 X145.9039 Y-69.1398
G01 X145.9187 Y-69.1258
G01 X145.9327 Y-69.1111
G01 X145.9486 Y-69.0931
G01 X145.9659 Y-69.1067
G01 X145.9879 Y-69.1223
G01 X146.0041 Y-69.1330
G01 X146.0253 Y-69.1457
G01 X146.0524 Y-69.1602
G01 X146.1953 Y-69.2316
G01 X146.2317 Y-69.2482
G01 X146.2460 Y-69.2539
G01 X146.2839 Y-69.2669
G01 X146.2987 Y-69.2712
G01 X146.3184 Y-69.2761
G01 X146.3377 Y-69.2804
G01 X146.3528 Y-69.2832
G01 X146.3925 Y-69.2885
G01 X146.4078 Y-69.2898
G01 X146.4479 Y-69.2912
G01 X146.5907 Y-69.2912
G01 X146.6258 Y-69.2900
G01 X146.6461 Y-69.2885
G01 X146.6663 Y-69.2860
G01 X146.7009 Y-69.2804
G01 X146.7350 Y-69.2723
G01 X146.7547 Y-69.2669
G01 X146.7740 Y-69.2605
G01 X146.8069 Y-69.2482
G01 X146.8388 Y-69.2337
G01 X146.8570 Y-69.2245
G01 X146.8747 Y-69.2145
G01 X146.9045 Y-69.1960
G01 X146.9330 Y-69.1755
G01 X146.9490 Y-69.1630
G01 X146.9644 Y-69.1497
G01 X146.9901 Y-69.1258
G01 X147.0140 Y-69.1001
G01 X147.0273 Y-69.0847
G01 X147.0398 Y-69.0687
G01 X147.0603 Y-69.0402
G01 X147.0788 Y-69.0104
G01 X147.0888 Y-68.9927
G01 X147.0980 Y-68.9745
G01 X147.1125 Y-68.9425
G01 X147.1248 Y-68.9097
G01 X147.1312 Y-68.8904
G01 X147.1366 Y-68.8708
G01 X147.1447 Y-68.8366
G01 X147.1481 Y-68.8166
G01 X147.1528 Y-68.7818
G01 X147.1543 Y-68.7615
G01 X147.1555 Y-68.7264
G01 X147.1543 Y-68.6914
G01 X147.1528 Y-68.6711
G01 X147.1481 Y-68.6363
G01 X147.1447 Y-68.6162
G01 X147.1402 Y-68.5964
G01 X147.1312 Y-68.5625
G01 X147.1248 Y-68.5431
G01 X147.1125 Y-68.5103
G01 X147.1043 Y-68.4917
G01 X147.0888 Y-68.4602
G01 X147.0712 Y-68.4298
G01 X147.0603 Y-68.4126
G01 X147.0398 Y-68.3842
G01 X147.0273 Y-68.3681
G01 X147.0041 Y-68.3418
G01 X146.9901 Y-68.3271
G01 X146.9753 Y-68.3130
G01 X146.9490 Y-68.2898
G01 X146.9330 Y-68.2773
G01 X146.9045 Y-68.2568
G01 X146.8747 Y-68.2384
G01 X146.8532 Y-68.2264
G01 X146.8747 Y-68.2145
G01 X146.8873 Y-68.2069
G01 X146.9045 Y-68.1960
G01 X146.9211 Y-68.1843
G01 X146.9490 Y-68.1630
G01 X146.9753 Y-68.1398
G01 X146.9901 Y-68.1258
G01 X147.0041 Y-68.1111
G01 X147.0273 Y-68.0847
G01 X147.0486 Y-68.0569
G01 X147.0603 Y-68.0402
G01 X147.0712 Y-68.0230
G01 X147.0888 Y-67.9927
G01 X147.1043 Y-67.9612
G01 X147.1125 Y-67.9425
G01 X147.1198 Y-67.9236
G01 X147.1312 Y-67.8904
G01 X147.1366 Y-67.8708
G01 X147.1447 Y-67.8366
G01 X147.1503 Y-67.8020
G01 X147.1528 Y-67.7818
G01 X147.1543 Y-67.7615
G01 X147.1555 Y-67.7264
G01 X147.1543 Y-67.6914
G01 X147.1528 Y-67.6711
G01 X147.1503 Y-67.6509
G01 X147.1447 Y-67.6162
G01 X147.1366 Y-67.5821
G01 X147.1312 Y-67.5625
G01 X147.1198 Y-67.5293
G01 X147.1125 Y-67.5103
G01 X147.1043 Y-67.4917
G01 X147.0888 Y-67.4602
G01 X147.0712 Y-67.4298
G01 X147.0603 Y-67.4126
G01 X147.0398 Y-67.3842
G01 X147.0273 Y-67.3681
G01 X147.0041 Y-67.3418
G01 X146.9901 Y-67.3271
G01 X146.9753 Y-67.3130
G01 X146.9490 Y-67.2898
G01 X146.9211 Y-67.2685
G01 X146.9045 Y-67.2568
G01 X146.8747 Y-67.2384
G01 X146.8570 Y-67.2283
G01 X146.8388 Y-67.2192
G01 X146.8069 Y-67.2046
G01 X146.7976 Y-67.2011
G01 X146.7956 Y-67.1711
G01 X146.7910 Y-67.1363
G01 X146.7875 Y-67.1162
G01 X146.7831 Y-67.0964
G01 X146.7740 Y-67.0625
G01 X146.7627 Y-67.0293
G01 X146.7554 Y-67.0103
G01 X146.7471 Y-66.9917
G01 X146.7317 Y-66.9602
G01 X146.7141 Y-66.9298
G01 X146.7032 Y-66.9126
G01 X146.6915 Y-66.8960
G01 X146.6702 Y-66.8681
G01 X146.6470 Y-66.8418
G01 X146.6329 Y-66.8271
G01 X146.6073 Y-66.8031
G01 X146.5919 Y-66.7898
G01 X146.5758 Y-66.7773
G01 X146.5474 Y-66.7568
G01 X146.5302 Y-66.7459
G01 X146.5153 Y-66.7371
G01 X146.5359 Y-66.7197
G01 X146.5615 Y-66.6958
G01 X146.5755 Y-66.6811
G01 X146.5987 Y-66.6547
G01 X146.6200 Y-66.6269
G01 X146.6318 Y-66.6102
G01 X146.6426 Y-66.5930
G01 X146.6602 Y-66.5627
G01 X146.6741 Y-66.5346
G01 X146.6913 Y-66.5529
G01 X146.7668 Y-66.6283
G01 X146.7884 Y-66.6483
G01 X146.8038 Y-66.6616
G01 X146.8159 Y-66.6712
G01 X146.8484 Y-66.6946
G01 X146.8613 Y-66.7030
G01 X146.8959 Y-66.7231
G01 X147.0524 Y-66.8016
G01 X147.0889 Y-66.8182
G01 X147.1031 Y-66.8239
G01 X147.1410 Y-66.8369
G01 X147.1558 Y-66.8412
G01 X147.1756 Y-66.8461
G01 X147.1948 Y-66.8504
G01 X147.2099 Y-66.8532
G01 X147.2301 Y-66.8561
G01 X147.2593 Y-66.8594
G01 X147.2846 Y-66.8607
G01 X147.3050 Y-66.8612
G01 X147.5907 Y-66.8612
G01 X147.6307 Y-66.8598
G01 X147.6461 Y-66.8585
G01 X147.6621 Y-66.8565
G01 X147.6782 Y-66.8585
G01 X147.6985 Y-66.8600
G01 X147.7336 Y-66.8612
G01 X147.7686 Y-66.8600
G01 X147.7889 Y-66.8585
G01 X147.8237 Y-66.8539
G01 X147.8438 Y-66.8504
G01 X147.8636 Y-66.8459
G01 X147.8975 Y-66.8369
G01 X147.9307 Y-66.8256
G01 X147.9497 Y-66.8182
G01 X147.9816 Y-66.8037
G01 X147.9998 Y-66.7945
G01 X148.0175 Y-66.7845
G01 X148.0474 Y-66.7660
G01 X148.0640 Y-66.7543
G01 X148.0919 Y-66.7330
G01 X148.1073 Y-66.7197
G01 X148.1329 Y-66.6958
G01 X148.1470 Y-66.6811
G01 X148.1629 Y-66.6631
G01 X148.1730 Y-66.6712
G01 X148.2055 Y-66.6946
G01 X148.2184 Y-66.7030
G01 X148.2530 Y-66.7231
G01 X148.4096 Y-66.8016
G01 X148.4460 Y-66.8182
G01 X148.4603 Y-66.8239
G01 X148.4982 Y-66.8369
G01 X148.5130 Y-66.8412
G01 X148.5321 Y-66.8459
G01 X148.5520 Y-66.8504
G01 X148.5671 Y-66.8532
G01 X148.6068 Y-66.8585
G01 X148.6221 Y-66.8598
G01 X148.6621 Y-66.8612
G01 X148.8764 Y-66.8612
G01 X148.8968 Y-66.8607
G01 X148.9165 Y-66.8598
G01 X148.9318 Y-66.8585
G01 X148.9715 Y-66.8532
G01 X148.9866 Y-66.8504
G01 X149.0256 Y-66.8412
G01 X149.0404 Y-66.8369
G01 X149.0783 Y-66.8239
G01 X149.0926 Y-66.8182
G01 X149.1106 Y-66.8103
G01 X149.1290 Y-66.8016
G01 X149.2769 Y-66.7276
G01 X149.3032 Y-66.7131
G01 X149.3284 Y-66.6977
G01 X149.3497 Y-66.6829
G01 X149.3656 Y-66.6712
G01 X149.3757 Y-66.6631
G01 X149.3916 Y-66.6811
G01 X149.4056 Y-66.6958
G01 X149.4313 Y-66.7197
G01 X149.4467 Y-66.7330
G01 X149.4746 Y-66.7543
G01 X149.4912 Y-66.7660
G01 X149.5210 Y-66.7845
G01 X149.5388 Y-66.7945
G01 X149.5569 Y-66.8037
G01 X149.5889 Y-66.8182
G01 X149.6079 Y-66.8256
G01 X149.6410 Y-66.8369
G01 X149.6607 Y-66.8423
G01 X149.6948 Y-66.8504
G01 X149.7294 Y-66.8560
G01 X149.7496 Y-66.8585
G01 X149.7846 Y-66.8607
G01 X149.8050 Y-66.8612
G01 X149.8401 Y-66.8600
G01 X149.8604 Y-66.8585
G01 X149.8951 Y-66.8539
G01 X149.9152 Y-66.8504
G01 X149.9350 Y-66.8459
G01 X149.9689 Y-66.8369
G01 X149.9883 Y-66.8305
G01 X150.0211 Y-66.8182
G01 X150.0397 Y-66.8100
G01 X150.0712 Y-66.7945
G01 X150.0890 Y-66.7845
G01 X150.1188 Y-66.7660
G01 X150.1264 Y-66.7607
G01 X150.1341 Y-66.7660
G01 X150.1513 Y-66.7769
G01 X150.1816 Y-66.7945
G01 X150.1998 Y-66.8037
G01 X150.2317 Y-66.8182
G01 X150.2507 Y-66.8256
G01 X150.2839 Y-66.8369
G01 X150.3035 Y-66.8423
G01 X150.3377 Y-66.8504
G01 X150.3577 Y-66.8539
G01 X150.3925 Y-66.8585
G01 X150.4275 Y-66.8607
G01 X150.4479 Y-66.8612
G01 X150.4682 Y-66.8607
G01 X150.5032 Y-66.8585
G01 X150.5380 Y-66.8539
G01 X150.5580 Y-66.8504
G01 X150.5922 Y-66.8423
G01 X150.6118 Y-66.8369
G01 X150.6311 Y-66.8305
G01 X150.6640 Y-66.8182
G01 X150.6959 Y-66.8037
G01 X150.7141 Y-66.7945
G01 X150.7318 Y-66.7845
G01 X150.7616 Y-66.7660
G01 X150.7901 Y-66.7455
G01 X150.8062 Y-66.7330
G01 X150.8216 Y-66.7197
G01 X150.8472 Y-66.6958
G01 X150.8712 Y-66.6701
G01 X150.8844 Y-66.6547
G01 X150.8970 Y-66.6387
G01 X150.9175 Y-66.6102
G01 X150.9359 Y-66.5804
G01 X150.9460 Y-66.5627
G01 X150.9551 Y-66.5445
G01 X150.9697 Y-66.5125
G01 X150.9819 Y-66.4797
G01 X150.9883 Y-66.4604
G01 X150.9938 Y-66.4408
G01 X151.0018 Y-66.4066
G01 X151.0074 Y-66.3720
G01 X151.0099 Y-66.3518
G01 X151.0114 Y-66.3315
G01 X151.0125 Y-66.3066
G01 X151.0127 Y-65.5107
G01 X151.0112 Y-65.4707
G01 X151.0099 Y-65.4553
G01 X151.0075 Y-65.4358
G01 X151.0046 Y-65.4157
G01 X151.0018 Y-65.4005
G01 X150.9926 Y-65.3615
G01 X150.9883 Y-65.3468
G01 X150.9753 Y-65.3089
G01 X150.9697 Y-65.2946
G01 X150.9575 Y-65.2673
G01 X150.8816 Y-65.1153
G01 X150.8671 Y-65.0882
G01 X150.8544 Y-65.0670
G01 X150.8437 Y-65.0507
G01 X150.8373 Y-65.0414
G01 X150.8226 Y-65.0216
G01 X150.8031 Y-64.9978
G01 X150.7927 Y-64.9862
G01 X150.7786 Y-64.9714
G01 X150.7648 Y-64.9578
G01 X150.7465 Y-64.9412
G01 X150.7315 Y-64.9287
G01 X150.7227 Y-64.9217
G01 X150.7029 Y-64.9070
G01 X150.6868 Y-64.8960
G01 X150.6696 Y-64.8851
G01 X150.6561 Y-64.8772
G01 X150.6290 Y-64.8627
G01 X150.4862 Y-64.7913
G01 X150.4497 Y-64.7746
G01 X150.4354 Y-64.7689
G01 X150.3975 Y-64.7560
G01 X150.3827 Y-64.7517
G01 X150.3636 Y-64.7469
G01 X150.3382 Y-64.7414
G01 X150.3091 Y-64.7368
G01 X150.2889 Y-64.7344
G01 X150.2736 Y-64.7331
G01 X150.2437 Y-64.7318
G01 X150.0193 Y-64.7316
G01 X149.9792 Y-64.7331
G01 X149.9639 Y-64.7344
G01 X149.9437 Y-64.7368
G01 X149.9242 Y-64.7397
G01 X149.9120 Y-64.7419
G01 X149.8806 Y-64.7368
G01 X149.8604 Y-64.7344
G01 X149.8401 Y-64.7329
G01 X149.8050 Y-64.7316
G01 X149.7699 Y-64.7329
G01 X149.7496 Y-64.7344
G01 X149.7149 Y-64.7390
G01 X149.6948 Y-64.7425
G01 X149.6750 Y-64.7469
G01 X149.6411 Y-64.7560
G01 X149.6079 Y-64.7673
G01 X149.5889 Y-64.7746
G01 X149.5569 Y-64.7892
G01 X149.5388 Y-64.7983
G01 X149.5210 Y-64.8084
G01 X149.4912 Y-64.8268
G01 X149.4746 Y-64.8385
G01 X149.4467 Y-64.8598
G01 X149.4313 Y-64.8731
G01 X149.4056 Y-64.8971
G01 X149.3916 Y-64.9118
G01 X149.3757 Y-64.9297
G01 X149.3656 Y-64.9217
G01 X149.3331 Y-64.8982
G01 X149.3202 Y-64.8899
G01 X149.2855 Y-64.8697
G01 X149.1290 Y-64.7913
G01 X149.0926 Y-64.7746
G01 X149.0783 Y-64.7689
G01 X149.0404 Y-64.7560
G01 X149.0256 Y-64.7517
G01 X149.0065 Y-64.7469
G01 X148.9866 Y-64.7425
G01 X148.9715 Y-64.7397
G01 X148.9318 Y-64.7344
G01 X148.9165 Y-64.7331
G01 X148.8764 Y-64.7316
G01 X148.6520 Y-64.7318
G01 X148.6221 Y-64.7331
G01 X148.6068 Y-64.7344
G01 X148.5866 Y-64.7368
G01 X148.5615 Y-64.7407
G01 X148.5327 Y-64.7468
G01 X148.5075 Y-64.7532
G01 X148.4789 Y-64.7623
G01 X148.4512 Y-64.7725
G01 X148.4280 Y-64.7826
G01 X148.4096 Y-64.7913
G01 X148.2984 Y-64.8469
G01 X148.2982 Y-64.7863
G01 X148.2971 Y-64.7614
G01 X148.2956 Y-64.7411
G01 X148.2910 Y-64.7063
G01 X148.2875 Y-64.6862
G01 X148.2795 Y-64.6521
G01 X148.2740 Y-64.6325
G01 X148.2677 Y-64.6131
G01 X148.2554 Y-64.5803
G01 X148.2471 Y-64.5617
G01 X148.2317 Y-64.5302
G01 X148.2141 Y-64.4998
G01 X148.2032 Y-64.4826
G01 X148.1827 Y-64.4542
G01 X148.1702 Y-64.4381
G01 X148.1470 Y-64.4118
G01 X148.1329 Y-64.3971
G01 X148.1073 Y-64.3731
G01 X148.0919 Y-64.3598
G01 X148.0640 Y-64.3385
G01 X148.0474 Y-64.3268
G01 X148.0175 Y-64.3084
G01 X147.9998 Y-64.2983
G01 X147.9816 Y-64.2892
G01 X147.9497 Y-64.2746
G01 X147.9307 Y-64.2673
G01 X147.8975 Y-64.2560
G01 X147.8779 Y-64.2505
G01 X147.8438 Y-64.2425
G01 X147.8237 Y-64.2390
G01 X147.7889 Y-64.2344
G01 X147.7686 Y-64.2329
G01 X147.7336 Y-64.2316
G01 X147.6985 Y-64.2329
G01 X147.6782 Y-64.2344
G01 X147.6434 Y-64.2390
G01 X147.6234 Y-64.2425
G01 X147.6035 Y-64.2469
G01 X147.5696 Y-64.2560
G01 X147.5503 Y-64.2623
G01 X147.5174 Y-64.2746
G01 X147.4855 Y-64.2892
G01 X147.4673 Y-64.2983
G01 X147.4496 Y-64.3084
G01 X147.4198 Y-64.3268
G01 X147.4031 Y-64.3385
G01 X147.3753 Y-64.3598
G01 X147.3489 Y-64.3830
G01 X147.3342 Y-64.3971
G01 X147.3202 Y-64.4118
G01 X147.2970 Y-64.4381
G01 X147.2845 Y-64.4542
G01 X147.2640 Y-64.4826
G01 X147.2455 Y-64.5125
G01 X147.2355 Y-64.5302
G01 X147.2263 Y-64.5484
G01 X147.2118 Y-64.5803
G01 X147.1995 Y-64.6131
G01 X147.1931 Y-64.6325
G01 X147.1877 Y-64.6521
G01 X147.1796 Y-64.6862
G01 X147.1740 Y-64.7209
G01 X147.1715 Y-64.7411
G01 X147.1710 Y-64.7479
G01 X147.1558 Y-64.7517
G01 X147.1411 Y-64.7560
G01 X147.1032 Y-64.7689
G01 X147.0889 Y-64.7746
G01 X147.0524 Y-64.7913
G01 X146.9358 Y-64.8495
G01 X146.9211 Y-64.8385
G01 X146.9045 Y-64.8268
G01 X146.8747 Y-64.8084
G01 X146.8570 Y-64.7983
G01 X146.8388 Y-64.7892
G01 X146.8069 Y-64.7746
G01 X146.7740 Y-64.7623
G01 X146.7547 Y-64.7560
G01 X146.7350 Y-64.7505
G01 X146.7009 Y-64.7425
G01 X146.6663 Y-64.7368
G01 X146.6461 Y-64.7344
G01 X146.6258 Y-64.7329
G01 X146.6009 Y-64.7318
G01 X146.4377 Y-64.7318
G01 X146.4078 Y-64.7331
G01 X146.3925 Y-64.7344
G01 X146.3723 Y-64.7368
G01 X146.3528 Y-64.7397
G01 X146.3377 Y-64.7425
G01 X146.3049 Y-64.7501
G01 X146.2723 Y-64.7425
G01 X146.2523 Y-64.7390
G01 X146.2175 Y-64.7344
G01 X146.1972 Y-64.7329
G01 X146.1621 Y-64.7316
G01 X146.1271 Y-64.7329
G01 X146.1068 Y-64.7344
G01 X146.0720 Y-64.7390
G01 X146.0520 Y-64.7425
G01 X146.0178 Y-64.7505
G01 X145.9982 Y-64.7560
G01 X145.9650 Y-64.7673
G01 X145.9460 Y-64.7746
G01 X145.9141 Y-64.7892
G01 X145.8959 Y-64.7983
G01 X145.8656 Y-64.8159
G01 X145.8484 Y-64.8268
G01 X145.8199 Y-64.8473
G01 X145.8038 Y-64.8598
G01 X145.7775 Y-64.8830
G01 X145.7628 Y-64.8971
G01 X145.7487 Y-64.9118
G01 X145.7328 Y-64.9297
G01 X145.7227 Y-64.9217
G01 X145.6902 Y-64.8982
G01 X145.6773 Y-64.8899
G01 X145.6427 Y-64.8697
G01 X145.4862 Y-64.7913
G01 X145.4497 Y-64.7746
G01 X145.4354 Y-64.7689
G01 X145.3975 Y-64.7560
G01 X145.3827 Y-64.7517
G01 X145.3636 Y-64.7469
G01 X145.3438 Y-64.7425
G01 X145.3286 Y-64.7397
G01 X145.2889 Y-64.7344
G01 X145.2736 Y-64.7331
G01 X145.2336 Y-64.7316
G01 X145.0091 Y-64.7318
G01 X144.9792 Y-64.7331
G01 X144.9639 Y-64.7344
G01 X144.9437 Y-64.7368
G01 X144.9187 Y-64.7407
G01 X144.8899 Y-64.7468
G01 X144.8647 Y-64.7532
G01 X144.8360 Y-64.7623
G01 X144.8084 Y-64.7725
G01 X144.7851 Y-64.7826
G01 X144.7667 Y-64.7913
G01 X144.6550 Y-64.8471
G01 X144.6531 Y-64.8175
G01 X144.6511 Y-64.7972
G01 X144.6480 Y-64.7771
G01 X144.6414 Y-64.7426
G01 X144.6325 Y-64.7087
G01 X144.6265 Y-64.6893
G01 X144.6196 Y-64.6701
G01 X144.6064 Y-64.6376
G01 X144.5977 Y-64.6192
G01 X144.5814 Y-64.5882
G01 X144.5630 Y-64.5583
G01 X144.5516 Y-64.5414
G01 X144.5394 Y-64.5251
G01 X144.5174 Y-64.4978
G01 X144.4935 Y-64.4721
G01 X144.4791 Y-64.4578
G01 X144.4639 Y-64.4441
G01 X144.4370 Y-64.4217
G01 X144.4086 Y-64.4011
G01 X144.3916 Y-64.3899
G01 X144.3741 Y-64.3795
G01 X144.3433 Y-64.3627
G01 X144.2004 Y-64.2913
G01 X144.1640 Y-64.2746
G01 X144.1497 Y-64.2689
G01 X144.1311 Y-64.2623
G01 X144.1064 Y-64.2544
G01 X144.0773 Y-64.2468
G01 X144.0580 Y-64.2425
G01 X144.0429 Y-64.2397
G01 X144.0032 Y-64.2344
G01 X143.9879 Y-64.2331
G01 X143.9580 Y-64.2318
G01 X143.7238 Y-64.2317
G01 X143.6979 Y-64.2329
G01 X143.6782 Y-64.2344
G01 X143.6629 Y-64.2361
G01 X143.6234 Y-64.2425
G01 X143.6084 Y-64.2457
G01 X143.5696 Y-64.2560
G01 X143.5550 Y-64.2606
G01 X143.3407 Y-64.3320
G01 X143.3215 Y-64.3390
G01 X143.2979 Y-64.3483
G01 X143.2712 Y-64.3606
G01 X143.2530 Y-64.3698
G01 X143.2396 Y-64.3772
G01 X143.2221 Y-64.3877
G01 X143.2055 Y-64.3982
G01 X143.1928 Y-64.4070
G01 X143.1610 Y-64.4313
G01 X143.1492 Y-64.4412
G01 X143.1199 Y-64.4685
G01 X142.9702 Y-64.6183
G01 X142.9531 Y-64.6370
G01 X142.9398 Y-64.6524
G01 X142.9303 Y-64.6644
G01 X142.9182 Y-64.6808
G01 X142.9068 Y-64.6969
G01 X142.8984 Y-64.7098
G01 X142.8783 Y-64.7445
G01 X142.8713 Y-64.7581
G01 X142.7943 Y-64.9123
G01 X142.7852 Y-64.9329
G01 X142.7775 Y-64.9517
G01 X142.7731 Y-64.9635
G01 X142.7668 Y-64.9829
G01 X142.7603 Y-65.0044
G01 X142.7571 Y-65.0166
G01 X142.6856 Y-65.3023
G01 X142.6796 Y-65.3291
G01 X142.6765 Y-65.3465
G01 X142.6735 Y-65.3667
G01 X142.6715 Y-65.3839
G01 X142.6701 Y-65.4016
G01 X142.6691 Y-65.4219
G01 X142.6688 Y-65.4393
G01 X142.6688 Y-65.6536
G01 X142.6694 Y-65.6810
G01 X142.6715 Y-65.7089
G01 X142.6749 Y-65.7362
G01 X142.6777 Y-65.7537
G01 X142.6817 Y-65.7736
G01 X142.6856 Y-65.7906
G01 X142.7582 Y-66.0808
G01 X142.7661 Y-66.1080
G01 X142.7731 Y-66.1293
G01 X142.7775 Y-66.1411
G01 X142.7852 Y-66.1600
G01 X142.7943 Y-66.1805
G01 X142.8713 Y-66.3347
G01 X142.8783 Y-66.3484
G01 X142.8880 Y-66.3655
G01 X142.8984 Y-66.3830
G01 X142.9068 Y-66.3959
G01 X142.9185 Y-66.4126
G01 X142.9337 Y-66.4329
G01 X142.9527 Y-66.4554
G01 X142.9663 Y-66.4705
G01 X143.1272 Y-66.6315
G01 X143.1492 Y-66.6517
G01 X143.1610 Y-66.6616
G01 X143.1770 Y-66.6741
G01 X143.1928 Y-66.6859
G01 X143.2055 Y-66.6946
G01 X143.2396 Y-66.7157
G01 X143.2530 Y-66.7231
G01 X143.2890 Y-66.7407
G01 X143.3031 Y-66.7468
G01 X143.3311 Y-66.7575
G01 X143.5603 Y-66.8340
G01 X143.5892 Y-66.8423
G01 X143.6179 Y-66.8492
G01 X143.6434 Y-66.8539
G01 X143.6629 Y-66.8568
G01 X143.6782 Y-66.8585
G01 X143.7182 Y-66.8610
G01 X143.7336 Y-66.8612
G01 X143.8821 Y-66.8612
G01 X143.9115 Y-66.8600
G01 X143.9318 Y-66.8585
G01 X143.9471 Y-66.8568
G01 X143.9866 Y-66.8504
G01 X144.0017 Y-66.8472
G01 X144.0404 Y-66.8369
G01 X144.2693 Y-66.7608
G01 X144.3069 Y-66.7468
G01 X144.3210 Y-66.7407
G01 X144.3394 Y-66.7320
G01 X144.3655 Y-66.7184
G01 X144.3873 Y-66.7055
G01 X144.4045 Y-66.6946
G01 X144.4172 Y-66.6859
G01 X144.4490 Y-66.6616
G01 X144.4608 Y-66.6517
G01 X144.4836 Y-66.6307
G01 X144.5027 Y-66.6483
G01 X144.5181 Y-66.6616
G01 X144.5302 Y-66.6712
G01 X144.5460 Y-66.6829
G01 X144.5626 Y-66.6946
G01 X144.5756 Y-66.7030
G01 X144.6102 Y-66.7231
G01 X144.7759 Y-66.8060
G01 X144.8031 Y-66.8182
G01 X144.8174 Y-66.8239
G01 X144.8366 Y-66.8307
G01 X144.8647 Y-66.8396
G01 X144.8899 Y-66.8461
G01 X144.9091 Y-66.8504
G01 X144.9242 Y-66.8532
G01 X144.9639 Y-66.8585
G01 X144.9792 Y-66.8598
G01 X144.9989 Y-66.8607
G01 X145.0193 Y-66.8612
G01 X145.2336 Y-66.8612
G01 X145.2736 Y-66.8598
G01 X145.2889 Y-66.8585
G01 X145.3091 Y-66.8560
G01 X145.3382 Y-66.8514
G01 X145.3630 Y-66.8461
G01 X145.3828 Y-66.8412
G01 X145.3975 Y-66.8369
G01 X145.4169 Y-66.8305
G01 X145.4354 Y-66.8239
G01 X145.4497 Y-66.8182
G01 X145.4862 Y-66.8016
G01 X145.6427 Y-66.7231
G01 X145.6773 Y-66.7030
G01 X145.6902 Y-66.6946
G01 X145.7227 Y-66.6712
G01 X145.7328 Y-66.6631
G01 X145.7487 Y-66.6811
G01 X145.7628 Y-66.6958
G01 X145.7884 Y-66.7197
G01 X145.8038 Y-66.7330
G01 X145.8317 Y-66.7543
G01 X145.8484 Y-66.7660
G01 X145.8656 Y-66.7769
G01 X145.8805 Y-66.7858
G01 X145.8599 Y-66.8031
G01 X145.8342 Y-66.8271
G01 X145.8103 Y-66.8527
G01 X145.7970 Y-66.8681
G01 X145.7845 Y-66.8842
G01 X145.7640 Y-66.9126
G01 X145.7455 Y-66.9425
G01 X145.7355 Y-66.9602
G01 X145.7263 Y-66.9784
G01 X145.7118 Y-67.0103
G01 X145.6995 Y-67.0431
G01 X145.6931 Y-67.0625
G01 X145.6841 Y-67.0964
G01 X145.6796 Y-67.1162
G01 X145.6761 Y-67.1363
G01 X145.6715 Y-67.1711
G01 X145.6700 Y-67.1914
G01 X145.6689 Y-67.2163
G01 X145.6688 Y-67.2769
G01 X145.5484 Y-67.2168
G01 X145.5211 Y-67.2046
G01 X145.5068 Y-67.1989
G01 X145.4690 Y-67.1860
G01 X145.4542 Y-67.1817
G01 X145.4350 Y-67.1769
G01 X145.4152 Y-67.1725
G01 X145.4001 Y-67.1697
G01 X145.3604 Y-67.1644
G01 X145.3450 Y-67.1631
G01 X145.3152 Y-67.1618
G01 X145.0805 Y-67.1618
G01 X145.0507 Y-67.1631
G01 X145.0353 Y-67.1644
G01 X145.0152 Y-67.1668
G01 X144.9956 Y-67.1697
G01 X144.9834 Y-67.1719
G01 X144.9520 Y-67.1668
G01 X144.9318 Y-67.1644
G01 X144.9115 Y-67.1629
G01 X144.8764 Y-67.1616
G01 X144.8414 Y-67.1629
G01 X144.8211 Y-67.1644
G01 X144.7863 Y-67.1690
G01 X144.7662 Y-67.1725
G01 X144.7464 Y-67.1769
G01 X144.7125 Y-67.1860
G01 X144.6793 Y-67.1973
G01 X144.6603 Y-67.2046
G01 X144.6417 Y-67.2129
G01 X144.6102 Y-67.2283
G01 X144.5925 Y-67.2384
G01 X144.5626 Y-67.2568
G01 X144.5342 Y-67.2773
G01 X144.5181 Y-67.2898
G01 X144.5027 Y-67.3031
G01 X144.4918 Y-67.3130
G01 X144.4759 Y-67.3283
G01 X144.4630 Y-67.3199
G01 X144.4419 Y-67.3072
G01 X144.4147 Y-67.2927
G01 X144.2719 Y-67.2213
G01 X144.2534 Y-67.2126
G01 X144.2302 Y-67.2025
G01 X144.2026 Y-67.1923
G01 X144.1832 Y-67.1860
G01 X144.1685 Y-67.1817
G01 X144.1487 Y-67.1768
G01 X144.1295 Y-67.1725
G01 X144.1144 Y-67.1697
G01 X144.0942 Y-67.1668
G01 X144.0650 Y-67.1635
G01 X144.0396 Y-67.1621
G01 X144.0193 Y-67.1616
G01 X143.7336 Y-67.1616
G01 X143.6935 Y-67.1631
G01 X143.6782 Y-67.1644
G01 X143.6586 Y-67.1668
G01 X143.6329 Y-67.1707
G01 X143.6042 Y-67.1768
G01 X143.5790 Y-67.1832
G01 X143.5509 Y-67.1921
G01 X143.5265 Y-67.2010
G01 X143.4994 Y-67.2126
G01 X143.4810 Y-67.2213
G01 X143.4412 Y-67.2411
G01 X143.4407 Y-67.2061
G01 X143.4385 Y-67.1711
G01 X143.4339 Y-67.1363
G01 X143.4304 Y-67.1162
G01 X143.4223 Y-67.0821
G01 X143.4169 Y-67.0625
G01 X143.4105 Y-67.0431
G01 X143.3982 Y-67.0103
G01 X143.3900 Y-66.9917
G01 X143.3745 Y-66.9602
G01 X143.3569 Y-66.9298
G01 X143.3460 Y-66.9126
G01 X143.3255 Y-66.8842
G01 X143.3130 Y-66.8681
G01 X143.2898 Y-66.8418
G01 X143.2758 Y-66.8271
G01 X143.2501 Y-66.8031
G01 X143.2347 Y-66.7898
G01 X143.2069 Y-66.7685
G01 X143.1902 Y-66.7568
G01 X143.1604 Y-66.7384
G01 X143.1427 Y-66.7283
G01 X143.1245 Y-66.7192
G01 X143.0926 Y-66.7046
G01 X143.0736 Y-66.6973
G01 X143.0404 Y-66.6860
G01 X143.0208 Y-66.6805
G01 X142.9866 Y-66.6725
G01 X142.9666 Y-66.6690
G01 X142.9318 Y-66.6644
G01 X142.9115 Y-66.6629
G01 X142.8764 Y-66.6616
G01 X142.8414 Y-66.6629
G01 X142.8211 Y-66.6644
G01 X142.7863 Y-66.6690
G01 X142.7662 Y-66.6725
G01 X142.7464 Y-66.6769
G01 X142.7125 Y-66.6860
G01 X142.6931 Y-66.6923
G01 X142.6603 Y-66.7046
G01 X142.6284 Y-66.7192
G01 X142.6102 Y-66.7283
G01 X142.5925 Y-66.7384
G01 X142.5626 Y-66.7568
G01 X142.5342 Y-66.7773
G01 X142.5181 Y-66.7898
G01 X142.5027 Y-66.8031
G01 X142.4771 Y-66.8271
G01 X142.4630 Y-66.8418
G01 X142.4398 Y-66.8681
G01 X142.4273 Y-66.8842
G01 X142.4068 Y-66.9126
G01 X142.3959 Y-66.9298
G01 X142.3783 Y-66.9602
G01 X142.3629 Y-66.9917
G01 X142.3546 Y-67.0103
G01 X142.3423 Y-67.0431
G01 X142.3360 Y-67.0625
G01 X142.3305 Y-67.0821
G01 X142.3225 Y-67.1162
G01 X142.3168 Y-67.1509
G01 X142.3144 Y-67.1711
G01 X142.3138 Y-67.1779
G01 X142.2987 Y-67.1817
G01 X142.2839 Y-67.1860
G01 X142.2460 Y-67.1989
G01 X142.2317 Y-67.2046
G01 X142.1953 Y-67.2213
G01 X142.0388 Y-67.2997
G01 X142.0041 Y-67.3199
G01 X141.9912 Y-67.3282
G01 X141.9587 Y-67.3517
G01 X141.9486 Y-67.3597
G01 X141.9327 Y-67.3418
G01 X141.9187 Y-67.3271
G01 X141.8930 Y-67.3031
G01 X141.8776 Y-67.2898
G01 X141.8497 Y-67.2685
G01 X141.8331 Y-67.2568
G01 X141.8032 Y-67.2384
G01 X141.7855 Y-67.2283
G01 X141.7673 Y-67.2192
G01 X141.7354 Y-67.2046
G01 X141.7164 Y-67.1973
G01 X141.6832 Y-67.1860
G01 X141.6636 Y-67.1805
G01 X141.6295 Y-67.1725
G01 X141.6094 Y-67.1690
G01 X141.5747 Y-67.1644
G01 X141.5543 Y-67.1629
G01 X141.5193 Y-67.1616
G01 X141.4842 Y-67.1629
G01 X141.4639 Y-67.1644
G01 X141.4292 Y-67.1690
G01 X141.4091 Y-67.1725
G01 X141.3750 Y-67.1805
G01 X141.3553 Y-67.1860
G01 X141.3360 Y-67.1923
G01 X141.3031 Y-67.2046
G01 X141.2845 Y-67.2129
G01 X141.2530 Y-67.2283
G01 X141.2353 Y-67.2384
G01 X141.2055 Y-67.2568
G01 X141.1979 Y-67.2622
G01 X141.1902 Y-67.2568
G01 X141.1730 Y-67.2459
G01 X141.1427 Y-67.2283
G01 X141.1245 Y-67.2192
G01 X141.0926 Y-67.2046
G01 X141.0597 Y-67.1923
G01 X141.0404 Y-67.1860
G01 X141.0208 Y-67.1805
G01 X140.9866 Y-67.1725
G01 X140.9520 Y-67.1668
G01 X140.9318 Y-67.1644
G01 X140.9115 Y-67.1629
G01 X140.8764 Y-67.1616
G01 X140.8414 Y-67.1629
G01 X140.8211 Y-67.1644
G01 X140.8009 Y-67.1668
G01 X140.7662 Y-67.1725
G01 X140.7321 Y-67.1805
G01 X140.7125 Y-67.1860
G01 X140.6931 Y-67.1923
G01 X140.6603 Y-67.2046
G01 X140.6417 Y-67.2129
G01 X140.6264 Y-67.2201
G01 X140.6112 Y-67.2129
G01 X140.5926 Y-67.2046
G01 X140.5833 Y-67.2011
G01 X140.5814 Y-67.1711
G01 X140.5767 Y-67.1363
G01 X140.5732 Y-67.1162
G01 X140.5688 Y-67.0964
G01 X140.5598 Y-67.0625
G01 X140.5484 Y-67.0293
G01 X140.5411 Y-67.0103
G01 X140.5328 Y-66.9917
G01 X140.5174 Y-66.9602
G01 X140.4998 Y-66.9298
G01 X140.4889 Y-66.9126
G01 X140.4684 Y-66.8842
G01 X140.4559 Y-66.8681
G01 X140.4327 Y-66.8418
G01 X140.4187 Y-66.8271
G01 X140.4039 Y-66.8130
G01 X140.3776 Y-66.7898
G01 X140.3497 Y-66.7685
G01 X140.3331 Y-66.7568
G01 X140.3159 Y-66.7459
G01 X140.3009 Y-66.7371
G01 X140.3211 Y-66.7202
G01 X140.3362 Y-66.7065
G01 X140.3506 Y-66.6922
G01 X140.3745 Y-66.6665
G01 X140.3875 Y-66.6508
G01 X140.4087 Y-66.6229
G01 X140.4201 Y-66.6060
G01 X140.4385 Y-66.5761
G01 X140.4479 Y-66.5588
G01 X140.4572 Y-66.5761
G01 X140.4677 Y-66.5936
G01 X140.4870 Y-66.6229
G01 X140.4991 Y-66.6392
G01 X140.5212 Y-66.6665
G01 X140.5451 Y-66.6922
G01 X140.5595 Y-66.7065
G01 X140.5858 Y-66.7297
G01 X140.6016 Y-66.7426
G01 X140.6300 Y-66.7631
G01 X140.6470 Y-66.7744
G01 X140.6773 Y-66.7920
G01 X140.6953 Y-66.8016
G01 X140.7137 Y-66.8102
G01 X140.7460 Y-66.8239
G01 X140.7652 Y-66.8307
G01 X140.7987 Y-66.8412
G01 X140.8184 Y-66.8461
G01 X140.8528 Y-66.8532
G01 X140.8729 Y-66.8561
G01 X140.9078 Y-66.8598
G01 X140.9282 Y-66.8607
G01 X140.9632 Y-66.8610
G01 X140.9982 Y-66.8588
G01 X141.0185 Y-66.8568
G01 X141.0531 Y-66.8512
G01 X141.0731 Y-66.8472
G01 X141.1070 Y-66.8382
G01 X141.1265 Y-66.8322
G01 X141.1593 Y-66.8200
G01 X141.1781 Y-66.8121
G01 X141.1979 Y-66.8027
G01 X141.2131 Y-66.8100
G01 X141.2317 Y-66.8182
G01 X141.2646 Y-66.8305
G01 X141.2839 Y-66.8369
G01 X141.3035 Y-66.8423
G01 X141.3377 Y-66.8504
G01 X141.3577 Y-66.8539
G01 X141.3925 Y-66.8585
G01 X141.4128 Y-66.8600
G01 X141.4479 Y-66.8612
G01 X141.4829 Y-66.8600
G01 X141.5032 Y-66.8585
G01 X141.5380 Y-66.8539
G01 X141.5580 Y-66.8504
G01 X141.5779 Y-66.8459
G01 X141.6118 Y-66.8369
G01 X141.6450 Y-66.8256
G01 X141.6640 Y-66.8182
G01 X141.6959 Y-66.8037
G01 X141.7141 Y-66.7945
G01 X141.7318 Y-66.7845
G01 X141.7616 Y-66.7660
G01 X141.7783 Y-66.7543
G01 X141.8062 Y-66.7330
G01 X141.8325 Y-66.7098
G01 X141.8472 Y-66.6958
G01 X141.9187 Y-66.6244
G01 X141.9327 Y-66.6096
G01 X141.9559 Y-66.5833
G01 X141.9684 Y-66.5673
G01 X141.9889 Y-66.5388
G01 X142.0074 Y-66.5090
G01 X142.0174 Y-66.4912
G01 X142.0265 Y-66.4731
G01 X142.0411 Y-66.4411
G01 X142.0534 Y-66.4083
G01 X142.0598 Y-66.3890
G01 X142.0652 Y-66.3693
G01 X142.0732 Y-66.3352
G01 X142.0789 Y-66.3006
G01 X142.0814 Y-66.2804
G01 X142.0829 Y-66.2601
G01 X142.0841 Y-66.2250
G01 X142.0829 Y-66.1899
G01 X142.0814 Y-66.1696
G01 X142.0789 Y-66.1494
G01 X142.0732 Y-66.1148
G01 X142.0652 Y-66.0807
G01 X142.0598 Y-66.0611
G01 X142.0534 Y-66.0417
G01 X142.0411 Y-66.0089
G01 X142.0265 Y-65.9769
G01 X142.0174 Y-65.9588
G01 X142.0074 Y-65.9410
G01 X141.9889 Y-65.9112
G01 X141.9684 Y-65.8827
G01 X141.9559 Y-65.8667
G01 X141.9426 Y-65.8513
G01 X141.9187 Y-65.8256
G01 X141.8472 Y-65.7542
G01 X141.8325 Y-65.7402
G01 X141.8062 Y-65.7170
G01 X141.7783 Y-65.6957
G01 X141.7616 Y-65.6840
G01 X141.7444 Y-65.6731
G01 X141.7141 Y-65.6555
G01 X141.6826 Y-65.6400
G01 X141.6640 Y-65.6318
G01 X141.6311 Y-65.6195
G01 X141.6118 Y-65.6131
G01 X141.5922 Y-65.6077
G01 X141.5580 Y-65.5996
G01 X141.5234 Y-65.5940
G01 X141.5032 Y-65.5915
G01 X141.4829 Y-65.5900
G01 X141.4479 Y-65.5888
G01 X141.4128 Y-65.5900
G01 X141.3925 Y-65.5915
G01 X141.3577 Y-65.5961
G01 X141.3377 Y-65.5996
G01 X141.3128 Y-65.6053
G01 X140.9837 Y-64.6178
G01 X140.9754 Y-64.5946
G01 X140.9712 Y-64.5841
G01 X140.9636 Y-64.5662
G01 X140.9530 Y-64.5439
G01 X140.9385 Y-64.5167
G01 X140.9258 Y-64.4956
G01 X140.9087 Y-64.4700
G01 X140.8940 Y-64.4501
G01 X140.8745 Y-64.4264
G01 X140.8579 Y-64.4081
G01 X140.8362 Y-64.3863
G01 X140.8179 Y-64.3697
G01 X140.7941 Y-64.3502
G01 X140.7743 Y-64.3355
G01 X140.7487 Y-64.3184
G01 X140.7276 Y-64.3058
G01 X140.7004 Y-64.2913
G01 X140.6781 Y-64.2807
G01 X140.6497 Y-64.2689
G01 X140.6350 Y-64.2636
G01 X140.6079 Y-64.2548
G01 X140.5819 Y-64.2478
G01 X140.5540 Y-64.2417
G01 X140.5275 Y-64.2373
G01 X140.4991 Y-64.2340
G01 X140.4723 Y-64.2322
G01 X140.4438 Y-64.2317
G01 X140.4169 Y-64.2325
G01 X140.3884 Y-64.2348
G01 X140.3617 Y-64.2383
G01 X140.3417 Y-64.2417
G01 X140.3138 Y-64.2478
G01 X140.2878 Y-64.2548
G01 X140.2607 Y-64.2636
G01 X140.2355 Y-64.2731
G01 X140.2094 Y-64.2845
G01 X140.1953 Y-64.2913
G01 X140.1681 Y-64.3058
G01 X140.1470 Y-64.3184
G01 X140.1214 Y-64.3355
G01 X140.1016 Y-64.3502
G01 X140.0778 Y-64.3697
G01 X140.0595 Y-64.3863
G01 X140.0378 Y-64.4081
G01 X140.0212 Y-64.4264
G01 X140.0017 Y-64.4501
G01 X139.9870 Y-64.4700
G01 X139.9699 Y-64.4956
G01 X139.9572 Y-64.5167
G01 X139.9427 Y-64.5439
G01 X139.9321 Y-64.5662
G01 X139.9204 Y-64.5946
G01 X139.9120 Y-64.6178
G01 X139.4120 Y-66.1178
G01 X139.4021 Y-66.1515
G01 X139.3971 Y-66.1712
G01 X139.3931 Y-66.1912
G01 X139.3875 Y-66.2258
G01 X139.3843 Y-66.2607
G01 X139.3833 Y-66.2811
G01 X139.3832 Y-66.3014
G01 X139.3845 Y-66.3365
G01 X139.3882 Y-66.3714
G01 X139.3911 Y-66.3915
G01 X139.3982 Y-66.4258
G01 X139.4031 Y-66.4456
G01 X139.4090 Y-66.4651
G01 X139.4204 Y-66.4983
G01 X139.4340 Y-66.5306
G01 X139.4427 Y-66.5490
G01 X139.4522 Y-66.5670
G01 X139.4699 Y-66.5973
G01 X139.4811 Y-66.6143
G01 X139.5017 Y-66.6427
G01 X139.5241 Y-66.6697
G01 X139.5378 Y-66.6848
G01 X139.5628 Y-66.7094
G01 X139.5778 Y-66.7231
G01 X139.5935 Y-66.7361
G01 X139.6214 Y-66.7573
G01 X139.6383 Y-66.7687
G01 X139.6661 Y-66.7859
G01 X139.6467 Y-66.8021
G01 X139.6251 Y-66.7909
G01 X139.6067 Y-66.7821
G01 X139.5879 Y-66.7743
G01 X139.5647 Y-66.7654
G01 X139.3261 Y-66.6860
G01 X139.2874 Y-66.6757
G01 X139.2723 Y-66.6725
G01 X139.2328 Y-66.6661
G01 X139.2175 Y-66.6644
G01 X139.1972 Y-66.6629
G01 X139.1775 Y-66.6618
G01 X139.1621 Y-66.6616
G01 X138.8050 Y-66.6616
G01 X138.7650 Y-66.6631
G01 X138.7496 Y-66.6644
G01 X138.7099 Y-66.6697
G01 X138.6948 Y-66.6725
G01 X138.6558 Y-66.6817
G01 X138.6411 Y-66.6860
G01 X138.6032 Y-66.6989
G01 X138.5889 Y-66.7046
G01 X138.5616 Y-66.7168
G01 X138.5233 Y-66.7358
G01 X138.6151 Y-66.5062
G01 X138.6224 Y-66.4870
G01 X138.9797 Y-65.4864
G01 X138.9904 Y-65.4530
G01 X138.9958 Y-65.4333
G01 X139.0003 Y-65.4135
G01 X139.0066 Y-65.3790
G01 X139.0091 Y-65.3588
G01 X139.0120 Y-65.3238
G01 X139.0125 Y-65.2887
G01 X139.0120 Y-65.2684
G01 X139.0090 Y-65.2334
G01 X139.0065 Y-65.2132
G01 X139.0030 Y-65.1932
G01 X138.9956 Y-65.1589
G01 X138.9902 Y-65.1393
G01 X138.9795 Y-65.1059
G01 X138.9665 Y-65.0733
G01 X138.9583 Y-65.0547
G01 X138.9491 Y-65.0365
G01 X138.9321 Y-65.0058
G01 X138.9212 Y-64.9886
G01 X138.9013 Y-64.9597
G01 X138.8888 Y-64.9437
G01 X138.8661 Y-64.9169
G01 X138.8417 Y-64.8917
G01 X138.8269 Y-64.8777
G01 X138.8001 Y-64.8551
G01 X138.7840 Y-64.8426
G01 X138.7674 Y-64.8309
G01 X138.7379 Y-64.8118
G01 X138.7202 Y-64.8018
G01 X138.6890 Y-64.7857
G01 X138.6568 Y-64.7719
G01 X138.6378 Y-64.7645
G01 X138.6185 Y-64.7582
G01 X138.5848 Y-64.7485
G01 X138.5505 Y-64.7412
G01 X138.5304 Y-64.7377
G01 X138.5102 Y-64.7352
G01 X138.4752 Y-64.7323
G01 X138.4402 Y-64.7318
G01 X138.4198 Y-64.7323
G01 X138.3995 Y-64.7338
G01 X138.3647 Y-64.7378
G01 X138.3302 Y-64.7442
G01 X138.3103 Y-64.7486
G01 X138.2907 Y-64.7541
G01 X138.2573 Y-64.7648
G01 X138.2247 Y-64.7777
G01 X138.2061 Y-64.7860
G01 X138.1879 Y-64.7952
G01 X138.1572 Y-64.8122
G01 X138.1278 Y-64.8312
G01 X138.1111 Y-64.8430
G01 X138.0907 Y-64.8591
G01 X138.0703 Y-64.8430
G01 X138.0537 Y-64.8312
G01 X138.0242 Y-64.8122
G01 X138.0065 Y-64.8021
G01 X137.9754 Y-64.7860
G01 X137.9567 Y-64.7777
G01 X137.9242 Y-64.7648
G01 X137.8907 Y-64.7541
G01 X137.8711 Y-64.7486
G01 X137.8368 Y-64.7413
G01 X137.8168 Y-64.7378
G01 X137.7819 Y-64.7338
G01 X137.7616 Y-64.7323
G01 X137.7413 Y-64.7318
G01 X137.7231 Y-64.7319
G01 X137.7196 Y-64.7063
G01 X137.7161 Y-64.6862
G01 X137.7080 Y-64.6521
G01 X137.7026 Y-64.6325
G01 X137.6962 Y-64.6131
G01 X137.6840 Y-64.5803
G01 X137.6694 Y-64.5484
G01 X137.6602 Y-64.5302
G01 X137.6426 Y-64.4998
G01 X137.6318 Y-64.4826
G01 X137.6200 Y-64.4660
G01 X137.5987 Y-64.4381
G01 X137.5755 Y-64.4118
G01 X137.5615 Y-64.3971
G01 X137.5359 Y-64.3731
G01 X137.5204 Y-64.3598
G01 X137.4926 Y-64.3385
G01 X137.4759 Y-64.3268
G01 X137.4587 Y-64.3159
G01 X137.4284 Y-64.2983
G01 X137.4102 Y-64.2892
G01 X137.3783 Y-64.2746
G01 X137.3593 Y-64.2673
G01 X137.3261 Y-64.2560
G01 X137.3065 Y-64.2505
G01 X137.2723 Y-64.2425
G01 X137.2523 Y-64.2390
G01 X137.2175 Y-64.2344
G01 X137.1972 Y-64.2329
G01 X137.1621 Y-64.2316
G01 X137.1271 Y-64.2329
G01 X137.1068 Y-64.2344
G01 X137.0720 Y-64.2390
G01 X137.0520 Y-64.2425
G01 X137.0178 Y-64.2505
G01 X136.9982 Y-64.2560
G01 X136.9650 Y-64.2673
G01 X136.9460 Y-64.2746
G01 X136.9141 Y-64.2892
G01 X136.8959 Y-64.2983
G01 X136.8656 Y-64.3159
G01 X136.8484 Y-64.3268
G01 X136.8317 Y-64.3385
G01 X136.8038 Y-64.3598
G01 X136.7884 Y-64.3731
G01 X136.7628 Y-64.3971
G01 X136.7487 Y-64.4118
G01 X136.7256 Y-64.4381
G01 X136.7130 Y-64.4542
G01 X136.6925 Y-64.4826
G01 X136.6741 Y-64.5125
G01 X136.6640 Y-64.5302
G01 X136.6549 Y-64.5484
G01 X136.6403 Y-64.5803
G01 X136.6281 Y-64.6131
G01 X136.6217 Y-64.6325
G01 X136.6162 Y-64.6521
G01 X136.6082 Y-64.6862
G01 X136.6026 Y-64.7209
G01 X136.6001 Y-64.7411
G01 X136.5996 Y-64.7479
G01 X136.5750 Y-64.7544
G01 X136.5503 Y-64.7623
G01 X136.5265 Y-64.7710
G01 X136.4994 Y-64.7826
G01 X136.4810 Y-64.7913
G01 X136.3381 Y-64.8627
G01 X136.3245 Y-64.8697
G01 X136.3073 Y-64.8795
G01 X136.2898 Y-64.8899
G01 X136.2769 Y-64.8982
G01 X136.2444 Y-64.9217
G01 X136.2324 Y-64.9313
G01 X136.2024 Y-64.9578
G01 X136.1621 Y-64.9977
G01 X136.1219 Y-64.9578
G01 X136.1068 Y-64.9441
G01 X136.0843 Y-64.9252
G01 X136.0635 Y-64.9096
G01 X136.0426 Y-64.8951
G01 X136.0175 Y-64.8798
G01 X135.9998 Y-64.8697
G01 X135.8433 Y-64.7913
G01 X135.8069 Y-64.7746
G01 X135.7926 Y-64.7689
G01 X135.7740 Y-64.7623
G01 X135.7493 Y-64.7544
G01 X135.7201 Y-64.7468
G01 X135.7009 Y-64.7425
G01 X135.6858 Y-64.7397
G01 X135.6656 Y-64.7368
G01 X135.6364 Y-64.7335
G01 X135.6111 Y-64.7321
G01 X135.5907 Y-64.7316
G01 X135.3663 Y-64.7318
G01 X135.3364 Y-64.7331
G01 X135.3211 Y-64.7344
G01 X135.3015 Y-64.7368
G01 X135.2758 Y-64.7407
G01 X135.2464 Y-64.7469
G01 X135.2179 Y-64.7544
G01 X135.1931 Y-64.7623
G01 X135.1693 Y-64.7710
G01 X135.1423 Y-64.7826
G01 X135.1238 Y-64.7913
G01 X135.0707 Y-64.8178
G01 X135.0652 Y-64.7950
G01 X135.0598 Y-64.7753
G01 X135.0534 Y-64.7560
G01 X135.0411 Y-64.7232
G01 X135.0328 Y-64.7045
G01 X135.0174 Y-64.6730
G01 X134.9998 Y-64.6427
G01 X134.9889 Y-64.6255
G01 X134.9684 Y-64.5970
G01 X134.9559 Y-64.5810
G01 X134.9426 Y-64.5656
G01 X134.9257 Y-64.5472
G01 X134.8400 Y-64.4614
G01 X134.8179 Y-64.4412
G01 X134.8062 Y-64.4313
G01 X134.7901 Y-64.4187
G01 X134.7663 Y-64.4014
G01 X134.7450 Y-64.3877
G01 X134.7276 Y-64.3772
G01 X134.7141 Y-64.3698
G01 X134.6965 Y-64.3609
G01 X134.6781 Y-64.3521
G01 X134.6640 Y-64.3461
G01 X134.6265 Y-64.3320
G01 X134.4122 Y-64.2606
G01 X134.3975 Y-64.2560
G01 X134.3588 Y-64.2457
G01 X134.3438 Y-64.2425
G01 X134.3042 Y-64.2361
G01 X134.2889 Y-64.2344
G01 X134.2693 Y-64.2329
G01 X134.2433 Y-64.2317
G01 X134.0753 Y-64.2318
G01 X134.0353 Y-64.2344
G01 X134.0201 Y-64.2361
G01 X133.9999 Y-64.2391
G01 X133.9805 Y-64.2425
G01 X133.9655 Y-64.2457
G01 X133.9268 Y-64.2560
G01 X133.6978 Y-64.3320
G01 X133.6603 Y-64.3461
G01 X133.6462 Y-64.3521
G01 X133.6102 Y-64.3698
G01 X133.5967 Y-64.3772
G01 X133.5626 Y-64.3982
G01 X133.5500 Y-64.4070
G01 X133.5181 Y-64.4313
G01 X133.5064 Y-64.4412
G01 X133.4771 Y-64.4685
G01 X133.3302 Y-64.6154
G01 X133.3103 Y-64.6370
G01 X133.2970 Y-64.6524
G01 X133.2874 Y-64.6644
G01 X133.2757 Y-64.6803
G01 X133.2640 Y-64.6969
G01 X133.2556 Y-64.7098
G01 X133.2355 Y-64.7445
G01 X133.1515 Y-64.9123
G01 X133.1424 Y-64.9329
G01 X133.1346 Y-64.9517
G01 X133.1303 Y-64.9635
G01 X133.1239 Y-64.9829
G01 X133.1174 Y-65.0044
G01 X133.1142 Y-65.0166
G01 X133.0405 Y-65.3121
G01 X133.0368 Y-65.3291
G01 X133.0320 Y-65.3567
G01 X133.0297 Y-65.3739
G01 X133.0278 Y-65.3942
G01 X133.0266 Y-65.4118
G01 X133.0259 Y-65.4393
G01 X133.0260 Y-65.6637
G01 X133.0266 Y-65.6810
G01 X133.0278 Y-65.6987
G01 X133.0297 Y-65.7190
G01 X133.0320 Y-65.7362
G01 X133.0368 Y-65.7638
G01 X133.0428 Y-65.7906
G01 X133.1142 Y-66.0763
G01 X133.1174 Y-66.0885
G01 X133.1239 Y-66.1100
G01 X133.1303 Y-66.1293
G01 X133.1346 Y-66.1411
G01 X133.1432 Y-66.1619
G01 X133.1549 Y-66.1877
G01 X133.2355 Y-66.3484
G01 X133.2455 Y-66.3661
G01 X133.2586 Y-66.3878
G01 X133.2753 Y-66.4120
G01 X133.2874 Y-66.4284
G01 X133.2970 Y-66.4404
G01 X133.3098 Y-66.4554
G01 X133.3274 Y-66.4746
G01 X133.4771 Y-66.6244
G01 X133.5064 Y-66.6517
G01 X133.5181 Y-66.6616
G01 X133.5366 Y-66.6759
G01 X133.5178 Y-66.6805
G01 X133.4982 Y-66.6860
G01 X133.4789 Y-66.6923
G01 X133.4460 Y-66.7046
G01 X133.4141 Y-66.7192
G01 X133.3959 Y-66.7283
G01 X133.3782 Y-66.7384
G01 X133.3484 Y-66.7568
G01 X133.3317 Y-66.7685
G01 X133.3038 Y-66.7898
G01 X133.2775 Y-66.8130
G01 X133.2628 Y-66.8271
G01 X133.2487 Y-66.8418
G01 X133.2256 Y-66.8681
G01 X133.2130 Y-66.8842
G01 X133.1925 Y-66.9126
G01 X133.1816 Y-66.9298
G01 X133.1640 Y-66.9602
G01 X133.1486 Y-66.9917
G01 X133.1403 Y-67.0103
G01 X133.1330 Y-67.0293
G01 X133.1217 Y-67.0625
G01 X133.1162 Y-67.0821
G01 X133.1082 Y-67.1162
G01 X133.1026 Y-67.1509
G01 X133.1001 Y-67.1711
G01 X133.0986 Y-67.1914
G01 X133.0973 Y-67.2264
G01 X133.0973 Y-68.4407
G01 X133.0978 Y-68.4611
G01 X133.0992 Y-68.4864
G01 X133.1025 Y-68.5156
G01 X133.1054 Y-68.5358
G01 X133.1082 Y-68.5509
G01 X133.1125 Y-68.5701
G01 X133.1174 Y-68.5899
G01 X133.1217 Y-68.6047
G01 X133.1346 Y-68.6426
G01 X133.1403 Y-68.6568
G01 X133.1570 Y-68.6933
G01 X133.2284 Y-68.8362
G01 X133.2355 Y-68.8498
G01 X133.2452 Y-68.8670
G01 X133.2556 Y-68.8844
G01 X133.2640 Y-68.8974
G01 X133.2874 Y-68.9299
G01 X133.2970 Y-68.9419
G01 X133.3098 Y-68.9568
G01 X133.3302 Y-68.9789
G01 X133.4096 Y-69.0583
G01 X133.4313 Y-69.0783
G01 X133.4467 Y-69.0916
G01 X133.4587 Y-69.1012
G01 X133.4912 Y-69.1246
G01 X133.5041 Y-69.1330
G01 X133.5388 Y-69.1531
G01 X133.5524 Y-69.1602
G01 X133.7044 Y-69.2360
G01 X133.7317 Y-69.2482
G01 X133.7460 Y-69.2539
G01 X133.7652 Y-69.2607
G01 X133.7893 Y-69.2685
G01 X133.8178 Y-69.2759
G01 X133.8377 Y-69.2804
G01 X133.8528 Y-69.2832
G01 X133.8723 Y-69.2860
G01 X133.8925 Y-69.2885
G01 X133.9078 Y-69.2898
G01 X133.9479 Y-69.2912
G01 X134.2336 Y-69.2912
G01 X134.2539 Y-69.2907
G01 X134.2736 Y-69.2898
G01 X134.2889 Y-69.2885
G01 X134.3286 Y-69.2832
G01 X134.3438 Y-69.2804
G01 X134.3630 Y-69.2761
G01 X134.3921 Y-69.2685
G01 X134.4162 Y-69.2607
G01 X134.4354 Y-69.2539
G01 X134.4497 Y-69.2482
G01 X134.4770 Y-69.2360
G01 X134.6290 Y-69.1602
G01 X134.6427 Y-69.1531
G01 X134.6604 Y-69.1431
G01 X134.6773 Y-69.1330
G01 X134.6902 Y-69.1246
G01 X134.7227 Y-69.1012
G01 X134.7347 Y-69.0916
G01 X134.7648 Y-69.0651
G01 X134.8061 Y-69.0241
G01 X134.8173 Y-69.0367
G01 X134.8314 Y-69.0514
G01 X134.8452 Y-69.0651
G01 X134.8635 Y-69.0817
G01 X134.8785 Y-69.0941
G01 X134.8945 Y-69.1067
G01 X134.9071 Y-69.1159
G01 X134.9232 Y-69.1268
G01 X134.9460 Y-69.1411
G01 X134.9719 Y-69.1555
G01 X135.1238 Y-69.2316
G01 X135.1603 Y-69.2482
G01 X135.1746 Y-69.2539
G01 X135.2125 Y-69.2669
G01 X135.2272 Y-69.2712
G01 X135.2662 Y-69.2804
G01 X135.2814 Y-69.2832
G01 X135.3211 Y-69.2885
G01 X135.3364 Y-69.2898
G01 X135.3561 Y-69.2907
G01 X135.3764 Y-69.2912
G01 X135.7336 Y-69.2912
G01 X135.7736 Y-69.2898
G01 X135.7889 Y-69.2885
G01 X135.8050 Y-69.2865
G01 X135.8211 Y-69.2885
G01 X135.8414 Y-69.2900
G01 X135.8764 Y-69.2912
G01 X135.9115 Y-69.2900
G01 X135.9318 Y-69.2885
G01 X135.9666 Y-69.2839
G01 X135.9866 Y-69.2804
G01 X136.0065 Y-69.2759
G01 X136.0404 Y-69.2669
G01 X136.0736 Y-69.2556
G01 X136.0926 Y-69.2482
G01 X136.1245 Y-69.2337
G01 X136.1427 Y-69.2245
G01 X136.1604 Y-69.2145
G01 X136.1902 Y-69.1960
G01 X136.2069 Y-69.1843
G01 X136.2347 Y-69.1630
G01 X136.2501 Y-69.1497
G01 X136.2758 Y-69.1258
G01 X136.2898 Y-69.1111
G01 X136.3058 Y-69.0931
G00 Z2.0000
G00 X167.0432 Y-107.9053
G01 F60.00
G01 Z-2.4000
G01 F120.00
G01 X167.1651 Y-107.9053
G01 X167.1369 Y-107.8946
G01 X167.1183 Y-107.8864
G01 X167.0557 Y-107.8568
G01 X167.0501 Y-107.8830
G01 X167.0432 Y-107.9053
G00 Z2.0000
G00 X168.2244 Y-107.8567
G01 F60.00
G01 Z-2.4000
G01 F120.00
G01 X168.1617 Y-107.8864
G01 X168.1431 Y-107.8946
G01 X168.1149 Y-107.9053
G01 X168.2412 Y-107.9053
G01 X168.2332 Y-107.8839
G01 X168.2267 Y-107.8652
G01 X168.2244 Y-107.8567
G00 Z2.0000
M05
G00 Z2.0000
G00 Z15.00
G00 X0.0 Y0.0

