(G-CODE GENERATED BY FLATCAM v8.99 - www.flatcam.org - Version Date: 2019/12/15)

(Name: PCB businescard-PTH.drl_cnc)
(Type: G-code from Excellon)
(Units: MM)

(Created on Tuesday, 28 October 2025 at 16:11)

(Feedrate: 300.0 mm/min)
(Feedrate rapids 1500.0 mm/min)

(Z_Cut: -0.1 mm)
(Z_Move: 2.0 mm)
(Z Toolchange: 15.0 mm)
(X,Y Toolchange: 0.0000, 0.0000 mm)
(Z Start: None mm)
(Z End: 0.5 mm)
(Steps per circle: 64)
(Preprocessor Excellon: default)

(X range:   -5.4204 ...   31.0896  mm)
(Y range:  -35.7204 ...  -13.9704  mm)

(Spindle Speed: None RPM)
G21
G90
G94




G01 F300.00
G00 Z2.0000

M03
G00 X19.2100 Y-19.9800
G01 Z-0.1000
G01 Z0
G00 Z2.0000
G00 X26.8300 Y-19.9800
G01 Z-0.1000
G01 Z0
G00 Z2.0000
M03
G00 X30.6400 Y-32.6800
G01 Z-0.1000
G01 Z0
G00 Z2.0000
G00 X30.6400 Y-35.2200
G01 Z-0.1000
G01 Z0
G00 Z2.0000
M03
G00 X-4.9200 Y-14.4707
G01 Z-0.1000
G01 Z0
G00 Z2.0000
G00 X-4.9200 Y-35.2200
G01 Z-0.1000
G01 Z0
G00 Z2.0000
M03
G00 X8.4709 Y-15.6391
G01 Z-0.1000
G01 Z0
G00 Z2.0000
G00 X8.4709 Y-20.1400
G01 Z-0.1000
G01 Z0
G00 Z2.0000
G00 X14.9707 Y-20.1400
G01 Z-0.1000
G01 Z0
G00 Z2.0000
G00 X14.9707 Y-15.6391
G01 Z-0.1000
G01 Z0
G00 Z2.0000
M05
G00 Z0.50
G00 X0.0 Y0.0

